Knowledge/luts/FLog_to_Rec709.cube
# F-Log to Rec.709
# Log decode: Fujifilm official datasheet constants (exact).
# Gamut: F-Gamut (BT.2020 primaries) -> BT.709, D65.
# Display: extended-Reinhard shoulder (W=8), 18% grey preserved, Rec.709 OETF.
# Generated by make-flog-luts.ps1
TITLE "F-Log to Rec.709"
LUT_3D_SIZE 5
DOMAIN_MIN 0.0 0.0 0.0
DOMAIN_MAX 1.0 1.0 1.0
0.000000 0.000000 0.000000
0.227746 0.000000 0.000000
0.571884 0.000000 0.000000
0.874831 0.000000 0.000000
1.000000 0.000000 0.000000
0.000000 0.168572 0.000000
0.160548 0.151521 0.000000
0.559063 0.031682 0.000000
0.873336 0.000000 0.000000
1.000000 0.000000 0.000000
0.000000 0.491737 0.000000
0.000000 0.487864 0.000000
0.480408 0.467567 0.000000
0.865556 0.313111 0.000000
1.000000 0.000000 0.000000
0.000000 0.819000 0.000000
0.000000 0.818466 0.000000
0.000000 0.815776 0.000000
0.810374 0.800344 0.000000
1.000000 0.659553 0.000000
0.000000 1.000000 0.000000
0.000000 1.000000 0.000000
0.000000 1.000000 0.000000
0.000000 1.000000 0.000000
1.000000 1.000000 0.000000
0.000000 0.000000 0.166712
0.220526 0.000000 0.164298
0.570338 0.000000 0.151818
0.874647 0.000000 0.063719
1.000000 0.000000 0.000000
0.000000 0.167477 0.152922
0.150319 0.150319 0.150319
0.557416 0.029780 0.136790
0.873149 0.000000 0.041016
1.000000 0.000000 0.000000
0.000000 0.491480 0.060825
0.000000 0.487602 0.056739
0.478033 0.467280 0.036336
0.865354 0.312555 0.000000
1.000000 0.000000 0.000000
0.000000 0.818964 0.000000
0.000000 0.818430 0.000000
0.000000 0.815739 0.000000
0.810038 0.800302 0.000000
1.000000 0.659442 0.000000
0.000000 1.000000 0.000000
0.000000 1.000000 0.000000
0.000000 1.000000 0.000000
0.000000 1.000000 0.000000
1.000000 1.000000 0.000000
0.000000 0.000000 0.489119
0.180350 0.000000 0.488552
0.562478 0.000000 0.485714
0.873727 0.000000 0.470004
1.000000 0.000000 0.361762
0.000000 0.161939 0.485959
0.087688 0.144225 0.485384
0.549035 0.020306 0.482505
0.872215 0.000000 0.466562
1.000000 0.000000 0.356261
0.000000 0.490196 0.469566
0.000000 0.486296 0.468948
0.465850 0.465850 0.465850
0.864344 0.309773 0.448648
1.000000 0.000000 0.326848
0.000000 0.818787 0.355052
0.000000 0.818252 0.354040
0.000000 0.815557 0.348949
0.808353 0.800094 0.319877
1.000000 0.658892 0.008456
0.000000 1.000000 0.000000
0.000000 1.000000 0.000000
0.000000 1.000000 0.000000
0.000000 1.000000 0.000000
1.000000 1.000000 0.000000
0.000000 0.000000 0.817025
0.000000 0.000000 0.816946
0.514869 0.000000 0.816552
0.868692 0.000000 0.814440
1.000000 0.000000 0.802528
0.000000 0.129279 0.816586
0.000000 0.107597 0.816507
0.497921 0.000000 0.816112
0.867101 0.000000 0.813991
1.000000 0.000000 0.802031
0.000000 0.483249 0.814382
0.000000 0.479224 0.814301
0.387422 0.458098 0.813899
0.858803 0.294401 0.811737
1.000000 0.000000 0.799536
0.000000 0.817839 0.801924
0.000000 0.817299 0.801834
0.000000 0.814581 0.801387
0.798982 0.798982 0.798982
1.000000 0.655939 0.785349
0.000000 1.000000 0.702251
0.000000 1.000000 0.702066
0.000000 1.000000 0.701141
0.000000 1.000000 0.696136
1.000000 1.000000 0.666592
0.000000 0.000000 1.000000
0.000000 0.000000 1.000000
0.000000 0.000000 1.000000
0.836773 0.000000 1.000000
1.000000 0.000000 1.000000
0.000000 0.000000 1.000000
0.000000 0.000000 1.000000
0.000000 0.000000 1.000000
0.834607 0.000000 1.000000
1.000000 0.000000 1.000000
0.000000 0.442268 1.000000
0.000000 0.437443 1.000000
0.000000 0.411869 1.000000
0.823174 0.188016 1.000000
1.000000 0.000000 1.000000
0.000000 0.812665 1.000000
0.000000 0.812101 1.000000
0.000000 0.809258 1.000000
0.732729 0.792898 1.000000
1.000000 0.639359 1.000000
0.000000 1.000000 1.000000
0.000000 1.000000 1.000000
0.000000 1.000000 1.000000
0.000000 1.000000 1.000000
1.000000 1.000000 1.000000
