Knowledge/luts/FLog2_to_Rec709.cube
# F-Log2 to Rec.709
# Log decode: Fujifilm official datasheet constants (exact).
# Gamut: F-Gamut (BT.2020 primaries) -> BT.709, D65.
# Display: extended-Reinhard shoulder (W=8), 18% grey preserved, Rec.709 OETF.
# Generated by make-flog-luts.ps1
TITLE "F-Log2 to Rec.709"
LUT_3D_SIZE 5
DOMAIN_MIN 0.0 0.0 0.0
DOMAIN_MAX 1.0 1.0 1.0
0.000000 0.000000 0.000000
0.255322 0.000000 0.000000
0.722063 0.000000 0.000000
1.000000 0.000000 0.000000
1.000000 0.000000 0.000000
0.000000 0.193854 0.000000
0.185541 0.176200 0.000000
0.715705 0.000000 0.000000
1.000000 0.000000 0.000000
1.000000 0.000000 0.000000
0.000000 0.647245 0.000000
0.000000 0.645144 0.000000
0.636169 0.623465 0.000000
1.000000 0.000000 0.000000
1.000000 0.000000 0.000000
0.000000 0.995156 0.000000
0.000000 0.995048 0.000000
0.000000 0.993999 0.000000
0.989192 0.982414 0.000000
1.000000 0.000000 0.000000
0.000000 1.000000 0.000000
0.000000 1.000000 0.000000
0.000000 1.000000 0.000000
0.000000 1.000000 0.000000
1.000000 1.000000 0.000000
0.000000 0.000000 0.191927
0.247815 0.000000 0.189426
0.721290 0.000000 0.163436
1.000000 0.000000 0.000000
1.000000 0.000000 0.000000
0.000000 0.192719 0.177649
0.174957 0.174957 0.174957
0.714898 0.000000 0.146729
1.000000 0.000000 0.000000
1.000000 0.000000 0.000000
0.000000 0.647105 0.000000
0.000000 0.645002 0.000000
0.634865 0.623305 0.000000
1.000000 0.000000 0.000000
1.000000 0.000000 0.000000
0.000000 0.995149 0.000000
0.000000 0.995041 0.000000
0.000000 0.993992 0.000000
0.989125 0.982405 0.000000
1.000000 0.000000 0.000000
0.000000 1.000000 0.000000
0.000000 1.000000 0.000000
0.000000 1.000000 0.000000
0.000000 1.000000 0.000000
1.000000 1.000000 0.000000
0.000000 0.000000 0.644697
0.156719 0.000000 0.644387
0.713599 0.000000 0.641372
1.000000 0.000000 0.606456
1.000000 0.000000 0.000000
0.000000 0.181397 0.642977
0.022911 0.162506 0.642665
0.706870 0.000000 0.639620
1.000000 0.000000 0.604338
1.000000 0.000000 0.000000
0.000000 0.645745 0.625453
0.000000 0.643627 0.625110
0.621754 0.621754 0.621754
1.000000 0.000000 0.582583
1.000000 0.000000 0.000000
0.000000 0.995079 0.122683
0.000000 0.994971 0.119005
0.000000 0.993921 0.077847
0.988480 0.982327 0.000000
1.000000 0.000000 0.000000
0.000000 1.000000 0.000000
0.000000 1.000000 0.000000
0.000000 1.000000 0.000000
0.000000 1.000000 0.000000
1.000000 1.000000 0.000000
0.000000 0.000000 0.993778
0.000000 0.000000 0.993762
0.599389 0.000000 0.993608
1.000000 0.000000 0.991986
1.000000 0.000000 0.973438
0.000000 0.000000 0.993690
0.000000 0.000000 0.993674
0.586188 0.000000 0.993520
1.000000 0.000000 0.991896
1.000000 0.000000 0.973331
0.000000 0.630880 0.992833
0.000000 0.628578 0.992817
0.380505 0.604723 0.992662
1.000000 0.000000 0.991026
1.000000 0.000000 0.972298
0.000000 0.994345 0.983471
0.000000 0.994236 0.983454
0.000000 0.993180 0.983285
0.981504 0.981504 0.981504
1.000000 0.000000 0.960806
0.000000 1.000000 0.547953
0.000000 1.000000 0.547443
0.000000 1.000000 0.542450
0.000000 1.000000 0.481848
1.000000 1.000000 0.000000
0.000000 0.000000 1.000000
0.000000 0.000000 1.000000
0.000000 0.000000 1.000000
0.969822 0.000000 1.000000
1.000000 0.000000 1.000000
0.000000 0.000000 1.000000
0.000000 0.000000 1.000000
0.000000 0.000000 1.000000
0.969176 0.000000 1.000000
1.000000 0.000000 1.000000
0.000000 0.314753 1.000000
0.000000 0.304830 1.000000
0.000000 0.175477 1.000000
0.962714 0.000000 1.000000
1.000000 0.000000 1.000000
0.000000 0.986379 1.000000
0.000000 0.986262 1.000000
0.000000 0.985128 1.000000
0.836352 0.972501 1.000000
1.000000 0.000000 1.000000
0.000000 1.000000 1.000000
0.000000 1.000000 1.000000
0.000000 1.000000 1.000000
0.000000 1.000000 1.000000
1.000000 1.000000 1.000000
