Knowledge/luts/FLog_to_Rec709.cube
# F-Log to Rec.709
# Log decode: Fujifilm official datasheet constants (exact).
# Gamut: F-Gamut (BT.2020 primaries) -> BT.709, D65.
# Display: extended-Reinhard shoulder (W=8), 18% grey preserved, Rec.709 OETF.
# Generated by make-flog-luts.ps1
TITLE "F-Log to Rec.709"
LUT_3D_SIZE 9
DOMAIN_MIN 0.0 0.0 0.0
DOMAIN_MAX 1.0 1.0 1.0
0.000000 0.000000 0.000000
0.074117 0.000000 0.000000
0.227746 0.000000 0.000000
0.392763 0.000000 0.000000
0.571884 0.000000 0.000000
0.741034 0.000000 0.000000
0.874831 0.000000 0.000000
0.974916 0.000000 0.000000
1.000000 0.000000 0.000000
0.000000 0.032706 0.000000
0.027944 0.022818 0.000000
0.206814 0.004173 0.000000
0.382868 0.000000 0.000000
0.567514 0.000000 0.000000
0.739414 0.000000 0.000000
0.874313 0.000000 0.000000
0.974736 0.000000 0.000000
1.000000 0.000000 0.000000
0.000000 0.168572 0.000000
0.000000 0.162816 0.000000
0.160548 0.151521 0.000000
0.363125 0.122360 0.000000
0.559063 0.031682 0.000000
0.736328 0.000000 0.000000
0.873336 0.000000 0.000000
0.974397 0.000000 0.000000
1.000000 0.000000 0.000000
0.000000 0.320018 0.000000
0.000000 0.317203 0.000000
0.000000 0.311833 0.000000
0.310104 0.298960 0.000000
0.538157 0.266202 0.000000
0.728953 0.163934 0.000000
0.871045 0.000000 0.000000
0.973610 0.000000 0.000000
1.000000 0.000000 0.000000
0.000000 0.491737 0.000000
0.000000 0.490397 0.000000
0.000000 0.487864 0.000000
0.090105 0.481914 0.000000
0.480408 0.467567 0.000000
0.710411 0.430597 0.000000
0.865556 0.313111 0.000000
0.971775 0.000000 0.000000
1.000000 0.000000 0.000000
0.000000 0.667839 0.000000
0.000000 0.667292 0.000000
0.000000 0.666261 0.000000
0.000000 0.663862 0.000000
0.232485 0.658200 0.000000
0.656933 0.644402 0.000000
0.851645 0.607892 0.000000
0.967414 0.483332 0.000000
1.000000 0.000000 0.000000
0.000000 0.819000 0.000000
0.000000 0.818815 0.000000
0.000000 0.818466 0.000000
0.000000 0.817659 0.000000
0.000000 0.815776 0.000000
0.392621 0.811316 0.000000
0.810374 0.800344 0.000000
0.956568 0.770555 0.000000
1.000000 0.659553 0.000000
0.000000 0.931952 0.000000
0.000000 0.931892 0.000000
0.000000 0.931780 0.000000
0.000000 0.931521 0.000000
0.000000 0.930922 0.000000
0.000000 0.929525 0.000000
0.569261 0.926224 0.000000
0.925547 0.918134 0.000000
1.000000 0.896266 0.000000
0.000000 1.000000 0.000000
0.000000 1.000000 0.000000
0.000000 1.000000 0.000000
0.000000 1.000000 0.000000
0.000000 1.000000 0.000000
0.000000 1.000000 0.000000
0.000000 1.000000 0.000000
0.737844 1.000000 0.000000
1.000000 1.000000 0.000000
0.000000 0.000000 0.031585
0.068444 0.000000 0.030146
0.225262 0.000000 0.027446
0.391558 0.000000 0.021212
0.571348 0.000000 0.006777
0.740834 0.000000 0.000000
0.874767 0.000000 0.000000
0.974894 0.000000 0.000000
1.000000 0.000000 0.000000
0.000000 0.032044 0.023598
0.022154 0.022154 0.022154
0.204065 0.003503 0.019445
0.381611 0.000000 0.013189
0.566966 0.000000 0.000000
0.739212 0.000000 0.000000
0.874249 0.000000 0.000000
0.974713 0.000000 0.000000
1.000000 0.000000 0.000000
0.000000 0.168191 0.008556
0.000000 0.162424 0.007102
0.157053 0.151104 0.004375
0.361759 0.121865 0.000000
0.558492 0.031020 0.000000
0.736121 0.000000 0.000000
0.873271 0.000000 0.000000
0.974374 0.000000 0.000000
1.000000 0.000000 0.000000
0.000000 0.319831 0.000000
0.000000 0.317013 0.000000
0.000000 0.311639 0.000000
0.308389 0.298754 0.000000
0.537525 0.265965 0.000000
0.728736 0.163544 0.000000
0.870979 0.000000 0.000000
0.973588 0.000000 0.000000
1.000000 0.000000 0.000000
0.000000 0.491648 0.000000
0.000000 0.490307 0.000000
0.000000 0.487773 0.000000
0.084692 0.481820 0.000000
0.479584 0.467467 0.000000
0.710165 0.430480 0.000000
0.865485 0.312918 0.000000
0.971752 0.000000 0.000000
1.000000 0.000000 0.000000
0.000000 0.667802 0.000000
0.000000 0.667255 0.000000
0.000000 0.666224 0.000000
0.000000 0.663824 0.000000
0.230056 0.658161 0.000000
0.656592 0.644360 0.000000
0.851564 0.607841 0.000000
0.967390 0.483239 0.000000
1.000000 0.000000 0.000000
0.000000 0.818988 0.000000
0.000000 0.818802 0.000000
0.000000 0.818454 0.000000
0.000000 0.817646 0.000000
0.000000 0.815763 0.000000
0.391416 0.811303 0.000000
0.810257 0.800329 0.000000
0.956541 0.770536 0.000000
1.000000 0.659514 0.000000
0.000000 0.931948 0.000000
0.000000 0.931888 0.000000
0.000000 0.931776 0.000000
0.000000 0.931517 0.000000
0.000000 0.930918 0.000000
0.000000 0.929521 0.000000
0.568718 0.926220 0.000000
0.925510 0.918130 0.000000
1.000000 0.896260 0.000000
0.000000 1.000000 0.000000
0.000000 1.000000 0.000000
0.000000 1.000000 0.000000
0.000000 1.000000 0.000000
0.000000 1.000000 0.000000
0.000000 1.000000 0.000000
0.000000 1.000000 0.000000
0.737640 1.000000 0.000000
1.000000 1.000000 0.000000
0.000000 0.000000 0.166712
0.057774 0.000000 0.165876
0.220526 0.000000 0.164298
0.389285 0.000000 0.160611
0.570338 0.000000 0.151818
0.740459 0.000000 0.129726
0.874647 0.000000 0.063719
0.974852 0.000000 0.000000
1.000000 0.000000 0.000000
0.000000 0.030804 0.162030
0.011264 0.020908 0.161172
0.198812 0.002248 0.159554
0.379239 0.000000 0.155770
0.565934 0.000000 0.146733
0.738832 0.000000 0.123934
0.874128 0.000000 0.055845
0.974671 0.000000 0.000000
1.000000 0.000000 0.000000
0.000000 0.167477 0.152922
0.000000 0.161686 0.152021
0.150319 0.150319 0.150319
0.359177 0.120934 0.146334
0.557416 0.029780 0.136790
0.735733 0.000000 0.112497
0.873149 0.000000 0.041016
0.974332 0.000000 0.000000
1.000000 0.000000 0.000000
0.000000 0.319479 0.129968
0.000000 0.316656 0.128939
0.000000 0.311274 0.126994
0.305142 0.298369 0.122422
0.536336 0.265519 0.111366
0.728328 0.162811 0.082375
0.870854 0.000000 0.006461
0.973545 0.000000 0.000000
1.000000 0.000000 0.000000
0.000000 0.491480 0.060825
0.000000 0.490138 0.059404
0.000000 0.487602 0.056739
0.073885 0.481644 0.050585
0.478033 0.467280 0.036336
0.709704 0.430260 0.003148
0.865354 0.312555 0.000000
0.971709 0.000000 0.000000
1.000000 0.000000 0.000000
0.000000 0.667734 0.000000
0.000000 0.667186 0.000000
0.000000 0.666155 0.000000
0.000000 0.663754 0.000000
0.225427 0.658089 0.000000
0.655952 0.644282 0.000000
0.851413 0.607745 0.000000
0.967345 0.483064 0.000000
1.000000 0.000000 0.000000
0.000000 0.818964 0.000000
0.000000 0.818779 0.000000
0.000000 0.818430 0.000000
0.000000 0.817623 0.000000
0.000000 0.815739 0.000000
0.389141 0.811278 0.000000
0.810038 0.800302 0.000000
0.956491 0.770502 0.000000
1.000000 0.659442 0.000000
0.000000 0.931940 0.000000
0.000000 0.931880 0.000000
0.000000 0.931768 0.000000
0.000000 0.931509 0.000000
0.000000 0.930910 0.000000
0.000000 0.929514 0.000000
0.567695 0.926212 0.000000
0.925439 0.918121 0.000000
1.000000 0.896249 0.000000
0.000000 1.000000 0.000000
0.000000 1.000000 0.000000
0.000000 1.000000 0.000000
0.000000 1.000000 0.000000
0.000000 1.000000 0.000000
0.000000 1.000000 0.000000
0.000000 1.000000 0.000000
0.737256 1.000000 0.000000
1.000000 1.000000 0.000000
0.000000 0.000000 0.317720
0.032987 0.000000 0.317308
0.209184 0.000000 0.316533
0.383959 0.000000 0.314738
0.567992 0.000000 0.310546
0.739590 0.000000 0.300584
0.874370 0.000000 0.275829
0.974755 0.000000 0.205370
1.000000 0.000000 0.000000
0.000000 0.027943 0.315426
0.000000 0.018035 0.315010
0.186153 0.000000 0.314227
0.373679 0.000000 0.312414
0.563536 0.000000 0.308179
0.737954 0.000000 0.298113
0.873849 0.000000 0.273073
0.974575 0.000000 0.201537
1.000000 0.000000 0.000000
0.000000 0.165818 0.311065
0.000000 0.159975 0.310641
0.133749 0.148497 0.309843
0.353117 0.118768 0.307995
0.554916 0.026917 0.303678
0.734836 0.000000 0.293409
0.872867 0.000000 0.267814
0.974235 0.000000 0.194153
1.000000 0.000000 0.000000
0.000000 0.318665 0.300689
0.000000 0.315833 0.300245
0.000000 0.310431 0.299411
0.297477 0.297477 0.297477
0.533569 0.264488 0.292956
0.727383 0.161110 0.282183
0.870565 0.000000 0.255200
0.973447 0.000000 0.176008
1.000000 0.000000 0.000000
0.000000 0.491092 0.274819
0.000000 0.489748 0.274321
0.000000 0.487207 0.273387
0.049276 0.481239 0.271217
0.474415 0.466848 0.266136
0.708634 0.429753 0.253962
0.865049 0.311717 0.223017
0.971609 0.000000 0.125930
1.000000 0.000000 0.000000
0.000000 0.667575 0.200316
0.000000 0.667027 0.199613
0.000000 0.665995 0.198287
0.000000 0.663592 0.195199
0.214355 0.657921 0.187893
0.654466 0.644100 0.169936
0.851064 0.607524 0.120324
0.967241 0.482662 0.000000
1.000000 0.000000 0.000000
0.000000 0.818911 0.000000
0.000000 0.818725 0.000000
0.000000 0.818376 0.000000
0.000000 0.817568 0.000000
0.000000 0.815684 0.000000
0.383812 0.811221 0.000000
0.809531 0.800239 0.000000
0.956374 0.770422 0.000000
1.000000 0.659276 0.000000
0.000000 0.931923 0.000000
0.000000 0.931863 0.000000
0.000000 0.931751 0.000000
0.000000 0.931492 0.000000
0.000000 0.930893 0.000000
0.000000 0.929496 0.000000
0.565318 0.926194 0.000000
0.925277 0.918101 0.000000
1.000000 0.896223 0.000000
0.000000 1.000000 0.000000
0.000000 1.000000 0.000000
0.000000 1.000000 0.000000
0.000000 1.000000 0.000000
0.000000 1.000000 0.000000
0.000000 1.000000 0.000000
0.000000 1.000000 0.000000
0.736367 1.000000 0.000000
1.000000 1.000000 0.000000
0.000000 0.000000 0.489119
0.000000 0.000000 0.488922
0.180350 0.000000 0.488552
0.371204 0.000000 0.487697
0.562478 0.000000 0.485714
0.737568 0.000000 0.481075
0.873727 0.000000 0.470004
0.974532 0.000000 0.442226
1.000000 0.000000 0.361762
0.000000 0.021334 0.488024
0.000000 0.011397 0.487826
0.153372 0.000000 0.487455
0.360339 0.000000 0.486596
0.557899 0.000000 0.484603
0.735908 0.000000 0.479941
0.873204 0.000000 0.468812
0.974351 0.000000 0.440880
1.000000 0.000000 0.359862
0.000000 0.161939 0.485959
0.000000 0.155970 0.485759
0.087688 0.144225 0.485384
0.338522 0.113661 0.484517
0.549035 0.020306 0.482505
0.732745 0.000000 0.477799
0.872215 0.000000 0.466562
0.974010 0.000000 0.438336
1.000000 0.000000 0.356261
0.000000 0.316778 0.481124
0.000000 0.313923 0.480919
0.000000 0.308476 0.480536
0.278769 0.295409 0.479650
0.527051 0.262094 0.477594
0.725182 0.157130 0.472783
0.869898 0.000000 0.461288
0.973221 0.000000 0.432364
1.000000 0.000000 0.347743
0.000000 0.490196 0.469566
0.000000 0.488846 0.469351
0.000000 0.486296 0.468948
0.000000 0.480303 0.468015
0.465850 0.465850 0.465850
0.706141 0.428580 0.460780
0.864344 0.309773 0.448648
0.971379 0.000000 0.417985
1.000000 0.000000 0.326848
0.000000 0.667210 0.440455
0.000000 0.666660 0.440211
0.000000 0.665626 0.439752
0.000000 0.663217 0.438692
0.186306 0.657534 0.436231
0.650992 0.643682 0.430455
0.850256 0.607013 0.416571
0.967000 0.481731 0.381035
1.000000 0.000000 0.270032
0.000000 0.818787 0.355052
0.000000 0.818601 0.354701
0.000000 0.818252 0.354040
0.000000 0.817443 0.352511
0.000000 0.815557 0.348949
0.371049 0.811088 0.340527
0.808353 0.800094 0.319877
0.956106 0.770238 0.263813
1.000000 0.658892 0.008456
0.000000 0.931883 0.000000
0.000000 0.931823 0.000000
0.000000 0.931711 0.000000
0.000000 0.931452 0.000000
0.000000 0.930852 0.000000
0.000000 0.929455 0.000000
0.559730 0.926151 0.000000
0.924903 0.918055 0.000000
1.000000 0.896165 0.000000
0.000000 1.000000 0.000000
0.000000 1.000000 0.000000
0.000000 1.000000 0.000000
0.000000 1.000000 0.000000
0.000000 1.000000 0.000000
0.000000 1.000000 0.000000
0.000000 1.000000 0.000000
0.734299 1.000000 0.000000
1.000000 1.000000 0.000000
0.000000 0.000000 0.665331
0.000000 0.000000 0.665251
0.088952 0.000000 0.665099
0.338877 0.000000 0.664749
0.549176 0.000000 0.663939
0.732794 0.000000 0.662059
0.872230 0.000000 0.657644
0.974016 0.000000 0.647021
1.000000 0.000000 0.619825
0.000000 0.006029 0.664883
0.000000 0.000000 0.664802
0.043027 0.000000 0.664650
0.326367 0.000000 0.664299
0.544290 0.000000 0.663487
0.731078 0.000000 0.661602
0.871699 0.000000 0.657175
0.973834 0.000000 0.646522
1.000000 0.000000 0.619246
0.000000 0.152673 0.664039
0.000000 0.146385 0.663958
0.000000 0.133962 0.663805
0.300948 0.101217 0.663452
0.534815 0.004993 0.662636
0.727808 0.000000 0.660742
0.870695 0.000000 0.656293
0.973491 0.000000 0.645584
1.000000 0.000000 0.618156
0.000000 0.312371 0.662078
0.000000 0.309461 0.661996
0.000000 0.303906 0.661841
0.228562 0.290569 0.661485
0.511229 0.256475 0.660660
0.719981 0.147609 0.658743
0.868342 0.000000 0.654241
0.972698 0.000000 0.643404
1.000000 0.000000 0.615619
0.000000 0.488116 0.657472
0.000000 0.486754 0.657387
0.000000 0.484179 0.657228
0.000000 0.478129 0.656862
0.444789 0.463532 0.656014
0.700237 0.425852 0.654045
0.862699 0.305229 0.649420
0.970846 0.000000 0.638273
1.000000 0.000000 0.609639
0.000000 0.666364 0.646365
0.000000 0.665811 0.646275
0.000000 0.664772 0.646106
0.000000 0.662351 0.645716
0.098988 0.656639 0.644812
0.642713 0.642713 0.642713
0.848368 0.605831 0.637778
0.966444 0.479571 0.625862
1.000000 0.000000 0.595095
0.000000 0.818501 0.617793
0.000000 0.818314 0.617687
0.000000 0.817964 0.617489
0.000000 0.817153 0.617032
0.000000 0.815262 0.615975
0.338698 0.810782 0.613515
0.805595 0.799758 0.607720
0.955484 0.769813 0.593653
1.000000 0.658004 0.556809
0.000000 0.931791 0.529229
0.000000 0.931731 0.529065
0.000000 0.931619 0.528758
0.000000 0.931360 0.528047
0.000000 0.930759 0.526399
0.000000 0.929360 0.522551
0.546244 0.926053 0.513413
0.924034 0.917948 0.490769
1.000000 0.896030 0.427811
0.000000 1.000000 0.000000
0.000000 1.000000 0.000000
0.000000 1.000000 0.000000
0.000000 1.000000 0.000000
0.000000 1.000000 0.000000
0.000000 1.000000 0.000000
0.000000 1.000000 0.000000
0.729415 1.000000 0.000000
1.000000 1.000000 0.000000
0.000000 0.000000 0.817025
0.000000 0.000000 0.816997
0.000000 0.000000 0.816946
0.240830 0.000000 0.816827
0.514869 0.000000 0.816552
0.721160 0.000000 0.815917
0.868692 0.000000 0.814440
0.972815 0.000000 0.810961
1.000000 0.000000 0.802528
0.000000 0.000000 0.816872
0.000000 0.000000 0.816845
0.000000 0.000000 0.816793
0.221215 0.000000 0.816674
0.509119 0.000000 0.816399
0.719303 0.000000 0.815763
0.868141 0.000000 0.814284
0.972631 0.000000 0.810800
1.000000 0.000000 0.802355
0.000000 0.129279 0.816586
0.000000 0.122059 0.816559
0.000000 0.107597 0.816507
0.178562 0.068122 0.816387
0.497921 0.000000 0.816112
0.715760 0.000000 0.815474
0.867101 0.000000 0.813991
0.972285 0.000000 0.810499
1.000000 0.000000 0.802031
0.000000 0.301881 0.815924
0.000000 0.298835 0.815896
0.000000 0.293015 0.815844
0.017617 0.279008 0.815724
0.469734 0.242950 0.815447
0.707265 0.123468 0.814805
0.864661 0.000000 0.813314
0.971482 0.000000 0.809801
1.000000 0.000000 0.801282
0.000000 0.483249 0.814382
0.000000 0.481856 0.814354
0.000000 0.479224 0.814301
0.000000 0.473037 0.814180
0.387422 0.458098 0.813899
0.685728 0.419441 0.813249
0.858803 0.294401 0.811737
0.969608 0.000000 0.808176
1.000000 0.000000 0.799536
0.000000 0.664398 0.810750
0.000000 0.663839 0.810721
0.000000 0.662787 0.810666
0.000000 0.660338 0.810541
0.000000 0.654558 0.810251
0.622041 0.640460 0.809580
0.843884 0.603078 0.808020
0.965150 0.474512 0.804343
1.000000 0.000000 0.795413
0.000000 0.817839 0.801924
0.000000 0.817651 0.801893
0.000000 0.817299 0.801834
0.000000 0.816483 0.801699
0.000000 0.814581 0.801387
0.240555 0.810074 0.800664
0.798982 0.798982 0.798982
0.954035 0.768828 0.795014
1.000000 0.655939 0.785349
0.000000 0.931578 0.778757
0.000000 0.931518 0.778720
0.000000 0.931406 0.778649
0.000000 0.931146 0.778486
0.000000 0.930544 0.778110
0.000000 0.929142 0.777239
0.511421 0.925827 0.775207
0.921998 0.917701 0.770401
1.000000 0.895718 0.758609
0.000000 1.000000 0.702251
0.000000 1.000000 0.702187
0.000000 1.000000 0.702066
0.000000 1.000000 0.701787
0.000000 1.000000 0.701141
0.000000 1.000000 0.699643
0.000000 1.000000 0.696136
0.717501 1.000000 0.687745
1.000000 1.000000 0.666592
0.000000 0.000000 0.930482
0.000000 0.000000 0.930473
0.000000 0.000000 0.930457
0.000000 0.000000 0.930418
0.406779 0.000000 0.930330
0.690373 0.000000 0.930127
0.860028 0.000000 0.929656
0.969994 0.000000 0.928562
1.000000 0.000000 0.925989
0.000000 0.000000 0.930433
0.000000 0.000000 0.930424
0.000000 0.000000 0.930407
0.000000 0.000000 0.930369
0.397467 0.000000 0.930281
0.688107 0.000000 0.930077
0.859428 0.000000 0.929606
0.969804 0.000000 0.928511
1.000000 0.000000 0.925937
0.000000 0.058583 0.930341
0.000000 0.048808 0.930332
0.000000 0.030376 0.930316
0.000000 0.000000 0.930277
0.378959 0.000000 0.930189
0.683774 0.000000 0.929985
0.858294 0.000000 0.929514
0.969448 0.000000 0.928418
1.000000 0.000000 0.925841
0.000000 0.275705 0.930129
0.000000 0.272286 0.930120
0.000000 0.265733 0.930103
0.000000 0.249853 0.930065
0.329784 0.208098 0.929976
0.673329 0.050687 0.929772
0.855631 0.000000 0.929299
0.968623 0.000000 0.928201
1.000000 0.000000 0.925618
0.000000 0.471609 0.929638
0.000000 0.470143 0.929629
0.000000 0.467370 0.929612
0.000000 0.460846 0.929573
0.143596 0.445059 0.929484
0.646476 0.403958 0.929279
0.849219 0.267297 0.928804
0.966694 0.000000 0.927699
1.000000 0.000000 0.925102
0.000000 0.659778 0.928496
0.000000 0.659204 0.928487
0.000000 0.658124 0.928470
0.000000 0.655607 0.928431
0.000000 0.649665 0.928341
0.563518 0.635156 0.928133
0.832776 0.596577 0.927652
0.962100 0.462402 0.926533
1.000000 0.000000 0.923902
0.000000 0.816298 0.925809
0.000000 0.816108 0.925799
0.000000 0.815751 0.925782
0.000000 0.814924 0.925742
0.000000 0.812996 0.925649
0.000000 0.808426 0.925435
0.782225 0.797173 0.924939
0.950609 0.766529 0.923787
1.000000 0.651085 0.921076
0.000000 0.931087 0.919300
0.000000 0.931027 0.919290
0.000000 0.930914 0.919271
0.000000 0.930652 0.919228
0.000000 0.930047 0.919129
0.000000 0.928638 0.918899
0.401210 0.925304 0.918367
0.917130 0.917130 0.917130
1.000000 0.894994 0.914213
0.000000 1.000000 0.902289
0.000000 1.000000 0.902277
0.000000 1.000000 0.902254
0.000000 1.000000 0.902203
0.000000 1.000000 0.902083
0.000000 1.000000 0.901807
0.000000 1.000000 0.901168
0.685906 1.000000 0.899677
1.000000 1.000000 0.896149
0.000000 0.000000 1.000000
0.000000 0.000000 1.000000
0.000000 0.000000 1.000000
0.000000 0.000000 1.000000
0.000000 0.000000 1.000000
0.585927 0.000000 1.000000
0.836773 0.000000 1.000000
0.963172 0.000000 1.000000
1.000000 0.000000 1.000000
0.000000 0.000000 1.000000
0.000000 0.000000 1.000000
0.000000 0.000000 1.000000
0.000000 0.000000 1.000000
0.000000 0.000000 1.000000
0.581856 0.000000 1.000000
0.836024 0.000000 1.000000
0.962970 0.000000 1.000000
1.000000 0.000000 1.000000
0.000000 0.000000 1.000000
0.000000 0.000000 1.000000
0.000000 0.000000 1.000000
0.000000 0.000000 1.000000
0.000000 0.000000 1.000000
0.573995 0.000000 1.000000
0.834607 0.000000 1.000000
0.962588 0.000000 1.000000
1.000000 0.000000 1.000000
0.000000 0.200105 1.000000
0.000000 0.195222 1.000000
0.000000 0.185737 1.000000
0.000000 0.161930 1.000000
0.000000 0.090516 1.000000
0.554620 0.000000 1.000000
0.831270 0.000000 1.000000
0.961704 0.000000 1.000000
1.000000 0.000000 1.000000
0.000000 0.442268 1.000000
0.000000 0.440601 1.000000
0.000000 0.437443 1.000000
0.000000 0.429997 1.000000
0.000000 0.411869 1.000000
0.501674 0.363831 1.000000
0.823174 0.188016 1.000000
0.959634 0.000000 1.000000
1.000000 0.000000 1.000000
0.000000 0.648636 1.000000
0.000000 0.648024 1.000000
0.000000 0.646872 1.000000
0.000000 0.644187 1.000000
0.000000 0.637842 1.000000
0.289858 0.622309 1.000000
0.801994 0.580714 1.000000
0.954688 0.431776 1.000000
1.000000 0.000000 1.000000
0.000000 0.812665 1.000000
0.000000 0.812469 1.000000
0.000000 0.812101 1.000000
0.000000 0.811248 1.000000
0.000000 0.809258 1.000000
0.000000 0.804538 1.000000
0.732729 0.792898 1.000000
0.942205 0.761075 1.000000
1.000000 0.639359 1.000000
0.000000 0.929944 1.000000
0.000000 0.929883 1.000000
0.000000 0.929769 1.000000
0.000000 0.929504 1.000000
0.000000 0.928892 1.000000
0.000000 0.927464 1.000000
0.000000 0.924088 1.000000
0.904826 0.915799 1.000000
1.000000 0.893306 1.000000
0.000000 1.000000 1.000000
0.000000 1.000000 1.000000
0.000000 1.000000 1.000000
0.000000 1.000000 1.000000
0.000000 1.000000 1.000000
0.000000 1.000000 1.000000
0.000000 1.000000 1.000000
0.577874 1.000000 1.000000
1.000000 1.000000 1.000000
