Knowledge/luts/FLog2_to_Rec709.cube
# F-Log2 to Rec.709
# Log decode: Fujifilm official datasheet constants (exact).
# Gamut: F-Gamut (BT.2020 primaries) -> BT.709, D65.
# Display: extended-Reinhard shoulder (W=8), 18% grey preserved, Rec.709 OETF.
# Generated by make-flog-luts.ps1
TITLE "F-Log2 to Rec.709"
LUT_3D_SIZE 33
DOMAIN_MIN 0.0 0.0 0.0
DOMAIN_MAX 1.0 1.0 1.0
0.000000 0.000000 0.000000
0.000000 0.000000 0.000000
0.006770 0.000000 0.000000
0.038677 0.000000 0.000000
0.074157 0.000000 0.000000
0.116854 0.000000 0.000000
0.160532 0.000000 0.000000
0.206465 0.000000 0.000000
0.255322 0.000000 0.000000
0.307426 0.000000 0.000000
0.362783 0.000000 0.000000
0.421067 0.000000 0.000000
0.481594 0.000000 0.000000
0.543330 0.000000 0.000000
0.604955 0.000000 0.000000
0.665005 0.000000 0.000000
0.722063 0.000000 0.000000
0.774990 0.000000 0.000000
0.823099 0.000000 0.000000
0.866261 0.000000 0.000000
0.904909 0.000000 0.000000
0.939971 0.000000 0.000000
0.972772 0.000000 0.000000
1.000000 0.000000 0.000000
1.000000 0.000000 0.000000
1.000000 0.000000 0.000000
1.000000 0.000000 0.000000
1.000000 0.000000 0.000000
1.000000 0.000000 0.000000
1.000000 0.000000 0.000000
1.000000 0.000000 0.000000
1.000000 0.000000 0.000000
1.000000 0.000000 0.000000
0.000000 0.000000 0.000000
0.000000 0.000000 0.000000
0.000000 0.000000 0.000000
0.027437 0.000000 0.000000
0.063092 0.000000 0.000000
0.107923 0.000000 0.000000
0.153661 0.000000 0.000000
0.201066 0.000000 0.000000
0.251043 0.000000 0.000000
0.304034 0.000000 0.000000
0.360110 0.000000 0.000000
0.418984 0.000000 0.000000
0.479995 0.000000 0.000000
0.542127 0.000000 0.000000
0.604071 0.000000 0.000000
0.664370 0.000000 0.000000
0.721620 0.000000 0.000000
0.774687 0.000000 0.000000
0.822895 0.000000 0.000000
0.866125 0.000000 0.000000
0.904817 0.000000 0.000000
0.939908 0.000000 0.000000
0.972727 0.000000 0.000000
1.000000 0.000000 0.000000
1.000000 0.000000 0.000000
1.000000 0.000000 0.000000
1.000000 0.000000 0.000000
1.000000 0.000000 0.000000
1.000000 0.000000 0.000000
1.000000 0.000000 0.000000
1.000000 0.000000 0.000000
1.000000 0.000000 0.000000
1.000000 0.000000 0.000000
0.000000 0.000000 0.000000
0.000000 0.000000 0.000000
0.000000 0.000000 0.000000
0.016140 0.000000 0.000000
0.051972 0.000000 0.000000
0.098447 0.000000 0.000000
0.146519 0.000000 0.000000
0.195519 0.000000 0.000000
0.246680 0.000000 0.000000
0.300592 0.000000 0.000000
0.357407 0.000000 0.000000
0.416881 0.000000 0.000000
0.478385 0.000000 0.000000
0.540917 0.000000 0.000000
0.603182 0.000000 0.000000
0.663734 0.000000 0.000000
0.721175 0.000000 0.000000
0.774382 0.000000 0.000000
0.822690 0.000000 0.000000
0.865988 0.000000 0.000000
0.904726 0.000000 0.000000
0.939846 0.000000 0.000000
0.972683 0.000000 0.000000
1.000000 0.000000 0.000000
1.000000 0.000000 0.000000
1.000000 0.000000 0.000000
1.000000 0.000000 0.000000
1.000000 0.000000 0.000000
1.000000 0.000000 0.000000
1.000000 0.000000 0.000000
1.000000 0.000000 0.000000
1.000000 0.000000 0.000000
1.000000 0.000000 0.000000
0.000000 0.008273 0.000000
0.000000 0.005864 0.000000
0.000000 0.003451 0.000000
0.004787 0.001036 0.000000
0.040797 0.000000 0.000000
0.088329 0.000000 0.000000
0.139076 0.000000 0.000000
0.189814 0.000000 0.000000
0.242227 0.000000 0.000000
0.297098 0.000000 0.000000
0.354672 0.000000 0.000000
0.414760 0.000000 0.000000
0.476763 0.000000 0.000000
0.539700 0.000000 0.000000
0.602290 0.000000 0.000000
0.663094 0.000000 0.000000
0.720728 0.000000 0.000000
0.774078 0.000000 0.000000
0.822486 0.000000 0.000000
0.865852 0.000000 0.000000
0.904635 0.000000 0.000000
0.939783 0.000000 0.000000
0.972638 0.000000 0.000000
1.000000 0.000000 0.000000
1.000000 0.000000 0.000000
1.000000 0.000000 0.000000
1.000000 0.000000 0.000000
1.000000 0.000000 0.000000
1.000000 0.000000 0.000000
1.000000 0.000000 0.000000
1.000000 0.000000 0.000000
1.000000 0.000000 0.000000
1.000000 0.000000 0.000000
0.000000 0.032866 0.000000
0.000000 0.030482 0.000000
0.000000 0.028096 0.000000
0.000000 0.025707 0.000000
0.028118 0.023007 0.000000
0.075827 0.019380 0.000000
0.130274 0.014507 0.000000
0.183171 0.007955 0.000000
0.237090 0.000000 0.000000
0.293089 0.000000 0.000000
0.351546 0.000000 0.000000
0.412343 0.000000 0.000000
0.474918 0.000000 0.000000
0.538318 0.000000 0.000000
0.601277 0.000000 0.000000
0.662370 0.000000 0.000000
0.720223 0.000000 0.000000
0.773733 0.000000 0.000000
0.822254 0.000000 0.000000
0.865698 0.000000 0.000000
0.904532 0.000000 0.000000
0.939713 0.000000 0.000000
0.972588 0.000000 0.000000
1.000000 0.000000 0.000000
1.000000 0.000000 0.000000
1.000000 0.000000 0.000000
1.000000 0.000000 0.000000
1.000000 0.000000 0.000000
1.000000 0.000000 0.000000
1.000000 0.000000 0.000000
1.000000 0.000000 0.000000
1.000000 0.000000 0.000000
1.000000 0.000000 0.000000
0.000000 0.065457 0.000000
0.000000 0.063108 0.000000
0.000000 0.060755 0.000000
0.000000 0.058401 0.000000
0.010991 0.055740 0.000000
0.059058 0.052164 0.000000
0.117684 0.047361 0.000000
0.173885 0.040904 0.000000
0.229997 0.032217 0.000000
0.287596 0.020515 0.000000
0.347285 0.004729 0.000000
0.409058 0.000000 0.000000
0.472419 0.000000 0.000000
0.536450 0.000000 0.000000
0.599910 0.000000 0.000000
0.661393 0.000000 0.000000
0.719542 0.000000 0.000000
0.773268 0.000000 0.000000
0.821943 0.000000 0.000000
0.865491 0.000000 0.000000
0.904393 0.000000 0.000000
0.939618 0.000000 0.000000
0.972521 0.000000 0.000000
1.000000 0.000000 0.000000
1.000000 0.000000 0.000000
1.000000 0.000000 0.000000
1.000000 0.000000 0.000000
1.000000 0.000000 0.000000
1.000000 0.000000 0.000000
1.000000 0.000000 0.000000
1.000000 0.000000 0.000000
1.000000 0.000000 0.000000
1.000000 0.000000 0.000000
0.000000 0.106530 0.000000
0.000000 0.104552 0.000000
0.000000 0.102548 0.000000
0.000000 0.100518 0.000000
0.000000 0.098193 0.000000
0.036375 0.095014 0.000000
0.099080 0.090642 0.000000
0.160677 0.084562 0.000000
0.220099 0.075825 0.000000
0.280017 0.064347 0.000000
0.341448 0.048864 0.000000
0.404581 0.027935 0.000000
0.469023 0.000000 0.000000
0.533918 0.000000 0.000000
0.598061 0.000000 0.000000
0.660075 0.000000 0.000000
0.718624 0.000000 0.000000
0.772643 0.000000 0.000000
0.821524 0.000000 0.000000
0.865212 0.000000 0.000000
0.904207 0.000000 0.000000
0.939490 0.000000 0.000000
0.972430 0.000000 0.000000
1.000000 0.000000 0.000000
1.000000 0.000000 0.000000
1.000000 0.000000 0.000000
1.000000 0.000000 0.000000
1.000000 0.000000 0.000000
1.000000 0.000000 0.000000
1.000000 0.000000 0.000000
1.000000 0.000000 0.000000
1.000000 0.000000 0.000000
1.000000 0.000000 0.000000
0.000000 0.149126 0.000000
0.000000 0.147597 0.000000
0.000000 0.146056 0.000000
0.000000 0.144500 0.000000
0.000000 0.142728 0.000000
0.005598 0.140322 0.000000
0.069973 0.137041 0.000000
0.141327 0.132542 0.000000
0.206047 0.126315 0.000000
0.269439 0.117580 0.000000
0.333386 0.105067 0.000000
0.398440 0.086491 0.000000
0.464389 0.058686 0.000000
0.530474 0.021078 0.000000
0.595554 0.000000 0.000000
0.658291 0.000000 0.000000
0.717384 0.000000 0.000000
0.771800 0.000000 0.000000
0.820960 0.000000 0.000000
0.864837 0.000000 0.000000
0.903956 0.000000 0.000000
0.939319 0.000000 0.000000
0.972308 0.000000 0.000000
1.000000 0.000000 0.000000
1.000000 0.000000 0.000000
1.000000 0.000000 0.000000
1.000000 0.000000 0.000000
1.000000 0.000000 0.000000
1.000000 0.000000 0.000000
1.000000 0.000000 0.000000
1.000000 0.000000 0.000000
1.000000 0.000000 0.000000
1.000000 0.000000 0.000000
0.000000 0.193854 0.000000
0.000000 0.192649 0.000000
0.000000 0.191436 0.000000
0.000000 0.190216 0.000000
0.000000 0.188829 0.000000
0.000000 0.186953 0.000000
0.029221 0.184409 0.000000
0.111422 0.180945 0.000000
0.185541 0.176200 0.000000
0.254421 0.169648 0.000000
0.322120 0.160488 0.000000
0.389945 0.147443 0.000000
0.458022 0.128287 0.000000
0.525768 0.098526 0.000000
0.592140 0.049610 0.000000
0.655869 0.000000 0.000000
0.715705 0.000000 0.000000
0.770660 0.000000 0.000000
0.820199 0.000000 0.000000
0.864333 0.000000 0.000000
0.903620 0.000000 0.000000
0.939089 0.000000 0.000000
0.972145 0.000000 0.000000
1.000000 0.000000 0.000000
1.000000 0.000000 0.000000
1.000000 0.000000 0.000000
1.000000 0.000000 0.000000
1.000000 0.000000 0.000000
1.000000 0.000000 0.000000
1.000000 0.000000 0.000000
1.000000 0.000000 0.000000
1.000000 0.000000 0.000000
1.000000 0.000000 0.000000
0.000000 0.241447 0.000000
0.000000 0.240488 0.000000
0.000000 0.239525 0.000000
0.000000 0.238557 0.000000
0.000000 0.237460 0.000000
0.000000 0.235979 0.000000
0.000000 0.233976 0.000000
0.060516 0.231261 0.000000
0.154138 0.227566 0.000000
0.232524 0.222507 0.000000
0.306103 0.215527 0.000000
0.378051 0.205784 0.000000
0.449198 0.191943 0.000000
0.519291 0.171721 0.000000
0.587467 0.140667 0.000000
0.652568 0.087439 0.000000
0.713425 0.000000 0.000000
0.769117 0.000000 0.000000
0.819170 0.000000 0.000000
0.863652 0.000000 0.000000
0.903166 0.000000 0.000000
0.938780 0.000000 0.000000
0.971925 0.000000 0.000000
1.000000 0.000000 0.000000
1.000000 0.000000 0.000000
1.000000 0.000000 0.000000
1.000000 0.000000 0.000000
1.000000 0.000000 0.000000
1.000000 0.000000 0.000000
1.000000 0.000000 0.000000
1.000000 0.000000 0.000000
1.000000 0.000000 0.000000
1.000000 0.000000 0.000000
0.000000 0.292290 0.000000
0.000000 0.291527 0.000000
0.000000 0.290761 0.000000
0.000000 0.289993 0.000000
0.000000 0.289122 0.000000
0.000000 0.287949 0.000000
0.000000 0.286366 0.000000
0.000000 0.284226 0.000000
0.100784 0.281324 0.000000
0.199106 0.277374 0.000000
0.282718 0.271966 0.000000
0.361097 0.264504 0.000000
0.436806 0.254090 0.000000
0.510289 0.239303 0.000000
0.581022 0.217735 0.000000
0.648042 0.184773 0.000000
0.710313 0.129258 0.000000
0.767019 0.017313 0.000000
0.817777 0.000000 0.000000
0.862732 0.000000 0.000000
0.902555 0.000000 0.000000
0.938364 0.000000 0.000000
0.971630 0.000000 0.000000
1.000000 0.000000 0.000000
1.000000 0.000000 0.000000
1.000000 0.000000 0.000000
1.000000 0.000000 0.000000
1.000000 0.000000 0.000000
1.000000 0.000000 0.000000
1.000000 0.000000 0.000000
1.000000 0.000000 0.000000
1.000000 0.000000 0.000000
1.000000 0.000000 0.000000
0.000000 0.346468 0.000000
0.000000 0.345864 0.000000
0.000000 0.345257 0.000000
0.000000 0.344650 0.000000
0.000000 0.343962 0.000000
0.000000 0.343036 0.000000
0.000000 0.341788 0.000000
0.000000 0.340105 0.000000
0.003700 0.337829 0.000000
0.143089 0.334741 0.000000
0.247006 0.330536 0.000000
0.336260 0.324776 0.000000
0.419078 0.316822 0.000000
0.497606 0.305710 0.000000
0.572039 0.289918 0.000000
0.641785 0.266865 0.000000
0.706038 0.231650 0.000000
0.764152 0.172742 0.000000
0.815881 0.044623 0.000000
0.861485 0.000000 0.000000
0.901728 0.000000 0.000000
0.937803 0.000000 0.000000
0.971234 0.000000 0.000000
1.000000 0.000000 0.000000
1.000000 0.000000 0.000000
1.000000 0.000000 0.000000
1.000000 0.000000 0.000000
1.000000 0.000000 0.000000
1.000000 0.000000 0.000000
1.000000 0.000000 0.000000
1.000000 0.000000 0.000000
1.000000 0.000000 0.000000
1.000000 0.000000 0.000000
0.000000 0.403746 0.000000
0.000000 0.403272 0.000000
0.000000 0.402797 0.000000
0.000000 0.402322 0.000000
0.000000 0.401783 0.000000
0.000000 0.401059 0.000000
0.000000 0.400085 0.000000
0.000000 0.398771 0.000000
0.000000 0.396999 0.000000
0.026702 0.394601 0.000000
0.187404 0.391346 0.000000
0.298187 0.386911 0.000000
0.392975 0.380829 0.000000
0.479372 0.372418 0.000000
0.559330 0.360648 0.000000
0.633036 0.343882 0.000000
0.700115 0.319339 0.000000
0.760209 0.281740 0.000000
0.813289 0.218822 0.000000
0.859789 0.080734 0.000000
0.900609 0.000000 0.000000
0.937046 0.000000 0.000000
0.970699 0.000000 0.000000
1.000000 0.000000 0.000000
1.000000 0.000000 0.000000
1.000000 0.000000 0.000000
1.000000 0.000000 0.000000
1.000000 0.000000 0.000000
1.000000 0.000000 0.000000
1.000000 0.000000 0.000000
1.000000 0.000000 0.000000
1.000000 0.000000 0.000000
1.000000 0.000000 0.000000
0.000000 0.463543 0.000000
0.000000 0.463177 0.000000
0.000000 0.462810 0.000000
0.000000 0.462443 0.000000
0.000000 0.462028 0.000000
0.000000 0.461469 0.000000
0.000000 0.460719 0.000000
0.000000 0.459708 0.000000
0.000000 0.458346 0.000000
0.000000 0.456506 0.000000
0.057185 0.454016 0.000000
0.234512 0.450633 0.000000
0.352699 0.446018 0.000000
0.452348 0.439681 0.000000
0.540956 0.430902 0.000000
0.620604 0.418584 0.000000
0.691808 0.400975 0.000000
0.754735 0.375081 0.000000
0.809721 0.335183 0.000000
0.857469 0.268027 0.000000
0.899086 0.122665 0.000000
0.936020 0.000000 0.000000
0.969977 0.000000 0.000000
1.000000 0.000000 0.000000
1.000000 0.000000 0.000000
1.000000 0.000000 0.000000
1.000000 0.000000 0.000000
1.000000 0.000000 0.000000
1.000000 0.000000 0.000000
1.000000 0.000000 0.000000
1.000000 0.000000 0.000000
1.000000 0.000000 0.000000
1.000000 0.000000 0.000000
0.000000 0.524922 0.000000
0.000000 0.524645 0.000000
0.000000 0.524367 0.000000
0.000000 0.524089 0.000000
0.000000 0.523775 0.000000
0.000000 0.523352 0.000000
0.000000 0.522784 0.000000
0.000000 0.522020 0.000000
0.000000 0.520991 0.000000
0.000000 0.519604 0.000000
0.000000 0.517730 0.000000
0.096863 0.515191 0.000000
0.284842 0.511739 0.000000
0.410269 0.507023 0.000000
0.513505 0.500536 0.000000
0.602517 0.491527 0.000000
0.679950 0.478843 0.000000
0.747036 0.460632 0.000000
0.804760 0.433684 0.000000
0.854274 0.391813 0.000000
0.897005 0.320578 0.000000
0.934627 0.165815 0.000000
0.969002 0.000000 0.000000
1.000000 0.000000 0.000000
1.000000 0.000000 0.000000
1.000000 0.000000 0.000000
1.000000 0.000000 0.000000
1.000000 0.000000 0.000000
1.000000 0.000000 0.000000
1.000000 0.000000 0.000000
1.000000 0.000000 0.000000
1.000000 0.000000 0.000000
1.000000 0.000000 0.000000
0.000000 0.586637 0.000000
0.000000 0.586432 0.000000
0.000000 0.586226 0.000000
0.000000 0.586020 0.000000
0.000000 0.585787 0.000000
0.000000 0.585474 0.000000
0.000000 0.585054 0.000000
0.000000 0.584489 0.000000
0.000000 0.583728 0.000000
0.000000 0.582704 0.000000
0.000000 0.581323 0.000000
0.000000 0.579455 0.000000
0.139038 0.576923 0.000000
0.338519 0.573476 0.000000
0.470276 0.568760 0.000000
0.575252 0.562259 0.000000
0.662588 0.553204 0.000000
0.736001 0.540407 0.000000
0.797766 0.521931 0.000000
0.849830 0.494384 0.000000
0.894141 0.451118 0.000000
0.932726 0.376391 0.000000
0.967679 0.211448 0.000000
1.000000 0.000000 0.000000
1.000000 0.000000 0.000000
1.000000 0.000000 0.000000
1.000000 0.000000 0.000000
1.000000 0.000000 0.000000
1.000000 0.000000 0.000000
1.000000 0.000000 0.000000
1.000000 0.000000 0.000000
1.000000 0.000000 0.000000
1.000000 0.000000 0.000000
0.000000 0.647245 0.000000
0.000000 0.647096 0.000000
0.000000 0.646947 0.000000
0.000000 0.646799 0.000000
0.000000 0.646630 0.000000
0.000000 0.646404 0.000000
0.000000 0.646101 0.000000
0.000000 0.645693 0.000000
0.000000 0.645144 0.000000
0.000000 0.644406 0.000000
0.000000 0.643411 0.000000
0.000000 0.642069 0.000000
0.000000 0.640252 0.000000
0.183123 0.637788 0.000000
0.395355 0.634429 0.000000
0.531745 0.629825 0.000000
0.636169 0.623465 0.000000
0.719747 0.614578 0.000000
0.787712 0.601964 0.000000
0.843560 0.583640 0.000000
0.890159 0.556079 0.000000
0.930113 0.512234 0.000000
0.965877 0.435052 0.000000
0.999828 0.260144 0.000000
1.000000 0.000000 0.000000
1.000000 0.000000 0.000000
1.000000 0.000000 0.000000
1.000000 0.000000 0.000000
1.000000 0.000000 0.000000
1.000000 0.000000 0.000000
1.000000 0.000000 0.000000
1.000000 0.000000 0.000000
1.000000 0.000000 0.000000
0.000000 0.705290 0.000000
0.000000 0.705185 0.000000
0.000000 0.705080 0.000000
0.000000 0.704975 0.000000
0.000000 0.704856 0.000000
0.000000 0.704697 0.000000
0.000000 0.704483 0.000000
0.000000 0.704196 0.000000
0.000000 0.703810 0.000000
0.000000 0.703291 0.000000
0.000000 0.702592 0.000000
0.000000 0.701650 0.000000
0.000000 0.700378 0.000000
0.000000 0.698656 0.000000
0.229945 0.696317 0.000000
0.454820 0.693126 0.000000
0.593400 0.688745 0.000000
0.694786 0.682677 0.000000
0.772831 0.674174 0.000000
0.834531 0.662048 0.000000
0.884547 0.644320 0.000000
0.926489 0.617403 0.000000
0.963408 0.573971 0.000000
0.998030 0.495788 0.000000
1.000000 0.312171 0.000000
1.000000 0.000000 0.000000
1.000000 0.000000 0.000000
1.000000 0.000000 0.000000
1.000000 0.000000 0.000000
1.000000 0.000000 0.000000
1.000000 0.000000 0.000000
1.000000 0.000000 0.000000
1.000000 0.000000 0.000000
0.000000 0.759522 0.000000
0.000000 0.759450 0.000000
0.000000 0.759378 0.000000
0.000000 0.759305 0.000000
0.000000 0.759224 0.000000
0.000000 0.759114 0.000000
0.000000 0.758967 0.000000
0.000000 0.758770 0.000000
0.000000 0.758504 0.000000
0.000000 0.758148 0.000000
0.000000 0.757668 0.000000
0.000000 0.757022 0.000000
0.000000 0.756151 0.000000
0.000000 0.754974 0.000000
0.000000 0.753381 0.000000
0.279962 0.751214 0.000000
0.516028 0.748255 0.000000
0.653787 0.744186 0.000000
0.749799 0.738539 0.000000
0.821129 0.730601 0.000000
0.876470 0.719234 0.000000
0.921396 0.702511 0.000000
0.959998 0.676880 0.000000
0.995576 0.634911 0.000000
1.000000 0.557491 0.000000
1.000000 0.367495 0.000000
1.000000 0.000000 0.000000
1.000000 0.000000 0.000000
1.000000 0.000000 0.000000
1.000000 0.000000 0.000000
1.000000 0.000000 0.000000
1.000000 0.000000 0.000000
1.000000 0.000000 0.000000
0.000000 0.809101 0.000000
0.000000 0.809052 0.000000
0.000000 0.809003 0.000000
0.000000 0.808955 0.000000
0.000000 0.808899 0.000000
0.000000 0.808825 0.000000
0.000000 0.808726 0.000000
0.000000 0.808593 0.000000
0.000000 0.808414 0.000000
0.000000 0.808173 0.000000
0.000000 0.807850 0.000000
0.000000 0.807416 0.000000
0.000000 0.806830 0.000000
0.000000 0.806041 0.000000
0.000000 0.804974 0.000000
0.000000 0.803527 0.000000
0.333327 0.801561 0.000000
0.577769 0.798872 0.000000
0.711462 0.795170 0.000000
0.800278 0.790025 0.000000
0.864484 0.782775 0.000000
0.914094 0.772356 0.000000
0.955229 0.756947 0.000000
0.992203 0.733131 0.000000
1.000000 0.693584 0.000000
1.000000 0.618789 0.000000
1.000000 0.425754 0.000000
1.000000 0.000000 0.000000
1.000000 0.000000 0.000000
1.000000 0.000000 0.000000
1.000000 0.000000 0.000000
1.000000 0.000000 0.000000
1.000000 0.000000 0.000000
0.000000 0.853721 0.000000
0.000000 0.853688 0.000000
0.000000 0.853656 0.000000
0.000000 0.853623 0.000000
0.000000 0.853586 0.000000
0.000000 0.853537 0.000000
0.000000 0.853471 0.000000
0.000000 0.853382 0.000000
0.000000 0.853262 0.000000
0.000000 0.853102 0.000000
0.000000 0.852887 0.000000
0.000000 0.852597 0.000000
0.000000 0.852208 0.000000
0.000000 0.851683 0.000000
0.000000 0.850976 0.000000
0.000000 0.850020 0.000000
0.000000 0.848724 0.000000
0.389883 0.846961 0.000000
0.638621 0.844550 0.000000
0.765212 0.841228 0.000000
0.845813 0.836608 0.000000
0.903303 0.830088 0.000000
0.948437 0.820698 0.000000
0.987518 0.806762 0.000000
1.000000 0.785088 0.000000
1.000000 0.748680 0.000000
1.000000 0.678208 0.000000
1.000000 0.486232 0.000000
1.000000 0.000000 0.000000
1.000000 0.000000 0.000000
1.000000 0.000000 0.000000
1.000000 0.000000 0.000000
1.000000 0.000000 0.000000
0.000000 0.893646 0.000000
0.000000 0.893624 0.000000
0.000000 0.893603 0.000000
0.000000 0.893581 0.000000
0.000000 0.893556 0.000000
0.000000 0.893523 0.000000
0.000000 0.893479 0.000000
0.000000 0.893420 0.000000
0.000000 0.893340 0.000000
0.000000 0.893233 0.000000
0.000000 0.893089 0.000000
0.000000 0.892896 0.000000
0.000000 0.892637 0.000000
0.000000 0.892288 0.000000
0.000000 0.891818 0.000000
0.000000 0.891185 0.000000
0.000000 0.890328 0.000000
0.000000 0.889168 0.000000
0.449133 0.887589 0.000000
0.697114 0.885431 0.000000
0.814247 0.882459 0.000000
0.886563 0.878326 0.000000
0.938489 0.872495 0.000000
0.980910 0.864097 0.000000
1.000000 0.851622 0.000000
1.000000 0.832169 0.000000
1.000000 0.799259 0.000000
1.000000 0.734370 0.000000
1.000000 0.547869 0.000000
1.000000 0.000000 0.000000
1.000000 0.000000 0.000000
1.000000 0.000000 0.000000
1.000000 0.000000 0.000000
0.000000 0.929663 0.000000
0.000000 0.929648 0.000000
0.000000 0.929633 0.000000
0.000000 0.929619 0.000000
0.000000 0.929602 0.000000
0.000000 0.929579 0.000000
0.000000 0.929549 0.000000
0.000000 0.929509 0.000000
0.000000 0.929455 0.000000
0.000000 0.929382 0.000000
0.000000 0.929285 0.000000
0.000000 0.929154 0.000000
0.000000 0.928978 0.000000
0.000000 0.928742 0.000000
0.000000 0.928425 0.000000
0.000000 0.927997 0.000000
0.000000 0.927421 0.000000
0.000000 0.926642 0.000000
0.000000 0.925587 0.000000
0.510224 0.924154 0.000000
0.751957 0.922197 0.000000
0.858327 0.919505 0.000000
0.923224 0.915768 0.000000
0.971353 0.910508 0.000000
1.000000 0.902954 0.000000
1.000000 0.891764 0.000000
1.000000 0.874356 0.000000
1.000000 0.844896 0.000000
1.000000 0.786220 0.000000
1.000000 0.609327 0.000000
1.000000 0.000000 0.000000
1.000000 0.000000 0.000000
1.000000 0.000000 0.000000
0.000000 0.962984 0.000000
0.000000 0.962974 0.000000
0.000000 0.962963 0.000000
0.000000 0.962953 0.000000
0.000000 0.962941 0.000000
0.000000 0.962925 0.000000
0.000000 0.962904 0.000000
0.000000 0.962876 0.000000
0.000000 0.962838 0.000000
0.000000 0.962787 0.000000
0.000000 0.962719 0.000000
0.000000 0.962627 0.000000
0.000000 0.962504 0.000000
0.000000 0.962338 0.000000
0.000000 0.962116 0.000000
0.000000 0.961817 0.000000
0.000000 0.961414 0.000000
0.000000 0.960872 0.000000
0.000000 0.960140 0.000000
0.000000 0.959150 0.000000
0.571974 0.957807 0.000000
0.802238 0.955976 0.000000
0.897774 0.953464 0.000000
0.956937 0.949989 0.000000
1.000000 0.945121 0.000000
1.000000 0.938169 0.000000
1.000000 0.927947 0.000000
1.000000 0.912186 0.000000
1.000000 0.885742 0.000000
1.000000 0.833187 0.000000
1.000000 0.669133 0.000000
1.000000 0.000000 0.000000
1.000000 0.000000 0.000000
0.000000 0.995156 0.000000
0.000000 0.995148 0.000000
0.000000 0.995140 0.000000
0.000000 0.995133 0.000000
0.000000 0.995124 0.000000
0.000000 0.995112 0.000000
0.000000 0.995097 0.000000
0.000000 0.995076 0.000000
0.000000 0.995048 0.000000
0.000000 0.995010 0.000000
0.000000 0.994960 0.000000
0.000000 0.994892 0.000000
0.000000 0.994801 0.000000
0.000000 0.994679 0.000000
0.000000 0.994515 0.000000
0.000000 0.994295 0.000000
0.000000 0.993999 0.000000
0.000000 0.993601 0.000000
0.000000 0.993065 0.000000
0.000000 0.992343 0.000000
0.000000 0.991367 0.000000
0.632972 0.990046 0.000000
0.847570 0.988249 0.000000
0.933428 0.985794 0.000000
0.989192 0.982414 0.000000
1.000000 0.977707 0.000000
1.000000 0.971046 0.000000
1.000000 0.961368 0.000000
1.000000 0.946670 0.000000
1.000000 0.922478 0.000000
1.000000 0.875267 0.000000
1.000000 0.725883 0.000000
1.000000 0.000000 0.000000
0.000000 1.000000 0.000000
0.000000 1.000000 0.000000
0.000000 1.000000 0.000000
0.000000 1.000000 0.000000
0.000000 1.000000 0.000000
0.000000 1.000000 0.000000
0.000000 1.000000 0.000000
0.000000 1.000000 0.000000
0.000000 1.000000 0.000000
0.000000 1.000000 0.000000
0.000000 1.000000 0.000000
0.000000 1.000000 0.000000
0.000000 1.000000 0.000000
0.000000 1.000000 0.000000
0.000000 1.000000 0.000000
0.000000 1.000000 0.000000
0.000000 1.000000 0.000000
0.000000 1.000000 0.000000
0.000000 1.000000 0.000000
0.000000 1.000000 0.000000
0.000000 1.000000 0.000000
0.000000 1.000000 0.000000
0.691747 1.000000 0.000000
0.888136 1.000000 0.000000
0.966542 1.000000 0.000000
1.000000 1.000000 0.000000
1.000000 1.000000 0.000000
1.000000 1.000000 0.000000
1.000000 0.993555 0.000000
1.000000 0.979202 0.000000
1.000000 0.956239 0.000000
1.000000 0.913007 0.000000
1.000000 0.778456 0.000000
0.000000 1.000000 0.000000
0.000000 1.000000 0.000000
0.000000 1.000000 0.000000
0.000000 1.000000 0.000000
0.000000 1.000000 0.000000
0.000000 1.000000 0.000000
0.000000 1.000000 0.000000
0.000000 1.000000 0.000000
0.000000 1.000000 0.000000
0.000000 1.000000 0.000000
0.000000 1.000000 0.000000
0.000000 1.000000 0.000000
0.000000 1.000000 0.000000
0.000000 1.000000 0.000000
0.000000 1.000000 0.000000
0.000000 1.000000 0.000000
0.000000 1.000000 0.000000
0.000000 1.000000 0.000000
