Knowledge/luts/FLog2_to_Rec709.cube
# F-Log2 to Rec.709
# Log decode: Fujifilm official datasheet constants (exact).
# Gamut: F-Gamut (BT.2020 primaries) -> BT.709, D65.
# Display: extended-Reinhard shoulder (W=8), 18% grey preserved, Rec.709 OETF.
# Generated by make-flog-luts.ps1
TITLE "F-Log2 to Rec.709"
LUT_3D_SIZE 9
DOMAIN_MIN 0.0 0.0 0.0
DOMAIN_MAX 1.0 1.0 1.0
0.000000 0.000000 0.000000
0.074157 0.000000 0.000000
0.255322 0.000000 0.000000
0.481594 0.000000 0.000000
0.722063 0.000000 0.000000
0.904909 0.000000 0.000000
1.000000 0.000000 0.000000
1.000000 0.000000 0.000000
1.000000 0.000000 0.000000
0.000000 0.032866 0.000000
0.028118 0.023007 0.000000
0.237090 0.000000 0.000000
0.474918 0.000000 0.000000
0.720223 0.000000 0.000000
0.904532 0.000000 0.000000
1.000000 0.000000 0.000000
1.000000 0.000000 0.000000
1.000000 0.000000 0.000000
0.000000 0.193854 0.000000
0.000000 0.188829 0.000000
0.185541 0.176200 0.000000
0.458022 0.128287 0.000000
0.715705 0.000000 0.000000
0.903620 0.000000 0.000000
1.000000 0.000000 0.000000
1.000000 0.000000 0.000000
1.000000 0.000000 0.000000
0.000000 0.403746 0.000000
0.000000 0.401783 0.000000
0.000000 0.396999 0.000000
0.392975 0.380829 0.000000
0.700115 0.319339 0.000000
0.900609 0.000000 0.000000
1.000000 0.000000 0.000000
1.000000 0.000000 0.000000
1.000000 0.000000 0.000000
0.000000 0.647245 0.000000
0.000000 0.646630 0.000000
0.000000 0.645144 0.000000
0.000000 0.640252 0.000000
0.636169 0.623465 0.000000
0.890159 0.556079 0.000000
1.000000 0.000000 0.000000
1.000000 0.000000 0.000000
1.000000 0.000000 0.000000
0.000000 0.853721 0.000000
0.000000 0.853586 0.000000
0.000000 0.853262 0.000000
0.000000 0.852208 0.000000
0.000000 0.848724 0.000000
0.845813 0.836608 0.000000
1.000000 0.785088 0.000000
1.000000 0.000000 0.000000
1.000000 0.000000 0.000000
0.000000 0.995156 0.000000
0.000000 0.995124 0.000000
0.000000 0.995048 0.000000
0.000000 0.994801 0.000000
0.000000 0.993999 0.000000
0.000000 0.991367 0.000000
0.989192 0.982414 0.000000
1.000000 0.946670 0.000000
1.000000 0.000000 0.000000
0.000000 1.000000 0.000000
0.000000 1.000000 0.000000
0.000000 1.000000 0.000000
0.000000 1.000000 0.000000
0.000000 1.000000 0.000000
0.000000 1.000000 0.000000
0.000000 1.000000 0.000000
1.000000 1.000000 0.000000
1.000000 1.000000 0.000000
0.000000 1.000000 0.000000
0.000000 1.000000 0.000000
0.000000 1.000000 0.000000
0.000000 1.000000 0.000000
0.000000 1.000000 0.000000
0.000000 1.000000 0.000000
0.000000 1.000000 0.000000
0.000000 1.000000 0.000000
1.000000 1.000000 0.000000
0.000000 0.000000 0.031748
0.068500 0.000000 0.030313
0.253142 0.000000 0.026861
0.480777 0.000000 0.015664
0.721837 0.000000 0.000000
0.904862 0.000000 0.000000
1.000000 0.000000 0.000000
1.000000 0.000000 0.000000
1.000000 0.000000 0.000000
0.000000 0.032206 0.023785
0.022345 0.022345 0.022345
0.234719 0.000000 0.018881
0.474077 0.000000 0.007645
0.719993 0.000000 0.000000
0.904485 0.000000 0.000000
1.000000 0.000000 0.000000
1.000000 0.000000 0.000000
1.000000 0.000000 0.000000
0.000000 0.193521 0.004534
0.000000 0.188488 0.003082
0.182490 0.175836 0.000000
0.457116 0.127812 0.000000
0.715469 0.000000 0.000000
0.903572 0.000000 0.000000
1.000000 0.000000 0.000000
1.000000 0.000000 0.000000
1.000000 0.000000 0.000000
0.000000 0.403615 0.000000
0.000000 0.401651 0.000000
0.000000 0.396864 0.000000
0.391775 0.380684 0.000000
0.699853 0.319151 0.000000
0.900560 0.000000 0.000000
1.000000 0.000000 0.000000
1.000000 0.000000 0.000000
1.000000 0.000000 0.000000
0.000000 0.647204 0.000000
0.000000 0.646589 0.000000
0.000000 0.645102 0.000000
0.000000 0.640210 0.000000
0.635787 0.623418 0.000000
0.890105 0.556013 0.000000
1.000000 0.000000 0.000000
1.000000 0.000000 0.000000
1.000000 0.000000 0.000000
0.000000 0.853712 0.000000
0.000000 0.853577 0.000000
0.000000 0.853253 0.000000
0.000000 0.852199 0.000000
0.000000 0.848714 0.000000
0.845728 0.836597 0.000000
1.000000 0.785071 0.000000
1.000000 0.000000 0.000000
1.000000 0.000000 0.000000
0.000000 0.995154 0.000000
0.000000 0.995122 0.000000
0.000000 0.995046 0.000000
0.000000 0.994799 0.000000
0.000000 0.993997 0.000000
0.000000 0.991365 0.000000
0.989172 0.982411 0.000000
1.000000 0.946667 0.000000
1.000000 0.000000 0.000000
0.000000 1.000000 0.000000
0.000000 1.000000 0.000000
0.000000 1.000000 0.000000
0.000000 1.000000 0.000000
0.000000 1.000000 0.000000
0.000000 1.000000 0.000000
0.000000 1.000000 0.000000
1.000000 1.000000 0.000000
1.000000 1.000000 0.000000
0.000000 1.000000 0.000000
0.000000 1.000000 0.000000
0.000000 1.000000 0.000000
0.000000 1.000000 0.000000
0.000000 1.000000 0.000000
0.000000 1.000000 0.000000
0.000000 1.000000 0.000000
0.000000 1.000000 0.000000
1.000000 1.000000 0.000000
0.000000 0.000000 0.191927
0.054848 0.000000 0.191195
0.247815 0.000000 0.189426
0.478802 0.000000 0.183594
0.721290 0.000000 0.163436
0.904750 0.000000 0.075205
1.000000 0.000000 0.000000
1.000000 0.000000 0.000000
1.000000 0.000000 0.000000
0.000000 0.030621 0.187838
0.008412 0.020752 0.187091
0.228913 0.000000 0.185284
0.472042 0.000000 0.179326
0.719439 0.000000 0.158683
0.904372 0.000000 0.067393
1.000000 0.000000 0.000000
1.000000 0.000000 0.000000
1.000000 0.000000 0.000000
0.000000 0.192719 0.177649
0.000000 0.187664 0.176862
0.174957 0.174957 0.174957
0.454922 0.126663 0.168665
0.714898 0.000000 0.146729
0.903459 0.000000 0.048511
1.000000 0.000000 0.000000
1.000000 0.000000 0.000000
1.000000 0.000000 0.000000
0.000000 0.403300 0.140338
0.000000 0.401333 0.139373
0.000000 0.396540 0.137031
0.388867 0.380337 0.129232
0.699222 0.318699 0.101131
0.900442 0.000000 0.000000
1.000000 0.000000 0.000000
1.000000 0.000000 0.000000
1.000000 0.000000 0.000000
0.000000 0.647105 0.000000
0.000000 0.646490 0.000000
0.000000 0.645002 0.000000
0.000000 0.640107 0.000000
0.634865 0.623305 0.000000
0.889974 0.555853 0.000000
1.000000 0.000000 0.000000
1.000000 0.000000 0.000000
1.000000 0.000000 0.000000
0.000000 0.853690 0.000000
0.000000 0.853555 0.000000
0.000000 0.853231 0.000000
0.000000 0.852177 0.000000
0.000000 0.848692 0.000000
0.845524 0.836572 0.000000
1.000000 0.785032 0.000000
1.000000 0.000000 0.000000
1.000000 0.000000 0.000000
0.000000 0.995149 0.000000
0.000000 0.995117 0.000000
0.000000 0.995041 0.000000
0.000000 0.994794 0.000000
0.000000 0.993992 0.000000
0.000000 0.991360 0.000000
0.989125 0.982405 0.000000
1.000000 0.946659 0.000000
1.000000 0.000000 0.000000
0.000000 1.000000 0.000000
0.000000 1.000000 0.000000
0.000000 1.000000 0.000000
0.000000 1.000000 0.000000
0.000000 1.000000 0.000000
0.000000 1.000000 0.000000
0.000000 1.000000 0.000000
1.000000 1.000000 0.000000
1.000000 1.000000 0.000000
0.000000 1.000000 0.000000
0.000000 1.000000 0.000000
0.000000 1.000000 0.000000
0.000000 1.000000 0.000000
0.000000 1.000000 0.000000
0.000000 1.000000 0.000000
0.000000 1.000000 0.000000
0.000000 1.000000 0.000000
1.000000 1.000000 0.000000
0.000000 0.000000 0.401252
0.010139 0.000000 0.400964
0.229640 0.000000 0.400270
0.472294 0.000000 0.398013
0.719508 0.000000 0.390564
0.904386 0.000000 0.364728
1.000000 0.000000 0.253785
1.000000 0.000000 0.000000
1.000000 0.000000 0.000000
0.000000 0.025486 0.399651
0.000000 0.015595 0.399361
0.208967 0.000000 0.398663
0.465334 0.000000 0.396390
0.717636 0.000000 0.388888
0.904007 0.000000 0.362858
1.000000 0.000000 0.250748
1.000000 0.000000 0.000000
1.000000 0.000000 0.000000
0.000000 0.190102 0.395759
0.000000 0.184980 0.395464
0.148310 0.172089 0.394754
0.447684 0.122892 0.392443
0.713039 0.000000 0.384812
0.903090 0.000000 0.358301
1.000000 0.000000 0.243274
1.000000 0.000000 0.000000
1.000000 0.000000 0.000000
0.000000 0.402278 0.382716
0.000000 0.400303 0.382404
0.000000 0.395487 0.381653
0.379209 0.379209 0.379209
0.697165 0.317233 0.371130
0.900062 0.000000 0.342936
1.000000 0.000000 0.217168
1.000000 0.000000 0.000000
1.000000 0.000000 0.000000
0.000000 0.646785 0.334797
0.000000 0.646168 0.334415
0.000000 0.644678 0.333494
0.000000 0.639774 0.330492
0.631851 0.622940 0.320513
0.889549 0.555338 0.284952
1.000000 0.000000 0.095916
1.000000 0.000000 0.000000
1.000000 0.000000 0.000000
0.000000 0.853620 0.000000
0.000000 0.853485 0.000000
0.000000 0.853161 0.000000
0.000000 0.852105 0.000000
0.000000 0.848618 0.000000
0.844861 0.836489 0.000000
1.000000 0.784904 0.000000
1.000000 0.000000 0.000000
1.000000 0.000000 0.000000
0.000000 0.995132 0.000000
0.000000 0.995100 0.000000
0.000000 0.995024 0.000000
0.000000 0.994777 0.000000
0.000000 0.993975 0.000000
0.000000 0.991343 0.000000
0.988973 0.982387 0.000000
1.000000 0.946632 0.000000
1.000000 0.000000 0.000000
0.000000 1.000000 0.000000
0.000000 1.000000 0.000000
0.000000 1.000000 0.000000
0.000000 1.000000 0.000000
0.000000 1.000000 0.000000
0.000000 1.000000 0.000000
0.000000 1.000000 0.000000
1.000000 1.000000 0.000000
1.000000 1.000000 0.000000
0.000000 1.000000 0.000000
0.000000 1.000000 0.000000
0.000000 1.000000 0.000000
0.000000 1.000000 0.000000
0.000000 1.000000 0.000000
0.000000 1.000000 0.000000
0.000000 1.000000 0.000000
0.000000 1.000000 0.000000
1.000000 1.000000 0.000000
0.000000 0.000000 0.644697
0.000000 0.000000 0.644606
0.156719 0.000000 0.644387
0.449880 0.000000 0.643680
0.713599 0.000000 0.641372
0.903201 0.000000 0.633702
1.000000 0.000000 0.606456
1.000000 0.000000 0.478648
1.000000 0.000000 0.000000
0.000000 0.008805 0.644193
0.000000 0.000000 0.644102
0.125734 0.000000 0.643883
0.442191 0.000000 0.643173
0.711652 0.000000 0.640859
0.902817 0.000000 0.633167
1.000000 0.000000 0.605836
1.000000 0.000000 0.477504
1.000000 0.000000 0.000000
0.000000 0.181397 0.642977
0.000000 0.176037 0.642885
0.022911 0.162506 0.642665
0.422596 0.110066 0.641950
0.706870 0.000000 0.639620
0.901888 0.000000 0.631874
1.000000 0.000000 0.604338
1.000000 0.000000 0.474731
1.000000 0.000000 0.000000
0.000000 0.398942 0.638988
0.000000 0.396939 0.638894
0.000000 0.392053 0.638669
0.344967 0.375528 0.637938
0.690324 0.312428 0.635555
0.898820 0.000000 0.627629
1.000000 0.000000 0.599415
1.000000 0.000000 0.465528
1.000000 0.000000 0.000000
0.000000 0.645745 0.625453
0.000000 0.645125 0.625352
0.000000 0.643627 0.625110
0.000000 0.638693 0.624322
0.621754 0.621754 0.621754
0.888160 0.553663 0.613199
1.000000 0.000000 0.582583
1.000000 0.000000 0.432949
1.000000 0.000000 0.000000
0.000000 0.853393 0.573551
0.000000 0.853258 0.573419
0.000000 0.852933 0.573101
0.000000 0.851875 0.572070
0.000000 0.848380 0.568700
0.842690 0.836223 0.557405
1.000000 0.784490 0.516040
1.000000 0.000000 0.278455
1.000000 0.000000 0.000000
0.000000 0.995079 0.122683
0.000000 0.995047 0.121611
0.000000 0.994971 0.119005
0.000000 0.994723 0.110280
0.000000 0.993921 0.077847
0.000000 0.991288 0.000000
0.988480 0.982327 0.000000
1.000000 0.946547 0.000000
1.000000 0.000000 0.000000
0.000000 1.000000 0.000000
0.000000 1.000000 0.000000
0.000000 1.000000 0.000000
0.000000 1.000000 0.000000
0.000000 1.000000 0.000000
0.000000 1.000000 0.000000
0.000000 1.000000 0.000000
1.000000 1.000000 0.000000
1.000000 1.000000 0.000000
0.000000 1.000000 0.000000
0.000000 1.000000 0.000000
0.000000 1.000000 0.000000
0.000000 1.000000 0.000000
0.000000 1.000000 0.000000
0.000000 1.000000 0.000000
0.000000 1.000000 0.000000
0.000000 1.000000 0.000000
1.000000 1.000000 0.000000
0.000000 0.000000 0.851910
0.000000 0.000000 0.851891
0.000000 0.000000 0.851843
0.357689 0.000000 0.851687
0.692784 0.000000 0.851184
0.899262 0.000000 0.849541
1.000000 0.000000 0.844045
1.000000 0.000000 0.824083
1.000000 0.000000 0.719106
0.000000 0.000000 0.851800
0.000000 0.000000 0.851780
0.000000 0.000000 0.851732
0.346200 0.000000 0.851577
0.690558 0.000000 0.851073
0.898862 0.000000 0.849428
1.000000 0.000000 0.843926
1.000000 0.000000 0.823940
1.000000 0.000000 0.718786
0.000000 0.150181 0.851534
0.000000 0.143822 0.851514
0.000000 0.127518 0.851466
0.316049 0.060322 0.851310
0.685082 0.000000 0.850805
0.897893 0.000000 0.849156
1.000000 0.000000 0.843639
1.000000 0.000000 0.823596
1.000000 0.000000 0.718015
0.000000 0.387822 0.850669
0.000000 0.385721 0.850648
0.000000 0.380595 0.850600
0.175967 0.363215 0.850443
0.666016 0.296171 0.849934
0.894690 0.000000 0.848271
1.000000 0.000000 0.842707
1.000000 0.000000 0.822476
1.000000 0.000000 0.715495
0.000000 0.642343 0.847822
0.000000 0.641711 0.847801
0.000000 0.640183 0.847751
0.000000 0.635152 0.847590
0.584828 0.617868 0.847067
0.883531 0.548152 0.845357
1.000000 0.000000 0.839636
1.000000 0.000000 0.818779
1.000000 0.000000 0.707049
0.000000 0.852656 0.838058
0.000000 0.852520 0.838036
0.000000 0.852193 0.837981
0.000000 0.851128 0.837804
0.000000 0.847607 0.837231
0.835357 0.835357 0.835357
1.000000 0.783142 0.829067
1.000000 0.000000 0.805945
1.000000 0.000000 0.676161
0.000000 0.994906 0.798933
0.000000 0.994874 0.798902
0.000000 0.994797 0.798825
0.000000 0.994550 0.798576
0.000000 0.993746 0.797769
0.000000 0.991109 0.795121
0.986872 0.982133 0.786149
1.000000 0.946269 0.751936
1.000000 0.000000 0.508302
0.000000 1.000000 0.312232
0.000000 1.000000 0.311811
0.000000 1.000000 0.310797
0.000000 1.000000 0.307485
0.000000 1.000000 0.296441
0.000000 1.000000 0.256561
0.000000 1.000000 0.016451
1.000000 1.000000 0.000000
1.000000 1.000000 0.000000
0.000000 1.000000 0.000000
0.000000 1.000000 0.000000
0.000000 1.000000 0.000000
0.000000 1.000000 0.000000
0.000000 1.000000 0.000000
0.000000 1.000000 0.000000
0.000000 1.000000 0.000000
0.000000 1.000000 0.000000
1.000000 1.000000 0.000000
0.000000 0.000000 0.993778
0.000000 0.000000 0.993773
0.000000 0.000000 0.993762
0.000000 0.000000 0.993726
0.599389 0.000000 0.993608
0.885277 0.000000 0.993227
1.000000 0.000000 0.991986
1.000000 0.000000 0.987879
1.000000 0.000000 0.973438
0.000000 0.000000 0.993752
0.000000 0.000000 0.993747
0.000000 0.000000 0.993736
0.000000 0.000000 0.993700
0.595602 0.000000 0.993582
0.884813 0.000000 0.993201
1.000000 0.000000 0.991960
1.000000 0.000000 0.987852
1.000000 0.000000 0.973407
0.000000 0.000000 0.993690
0.000000 0.000000 0.993685
0.000000 0.000000 0.993674
0.000000 0.000000 0.993637
0.586188 0.000000 0.993520
0.883690 0.000000 0.993138
1.000000 0.000000 0.991896
1.000000 0.000000 0.987786
1.000000 0.000000 0.973331
0.000000 0.347793 0.993488
0.000000 0.345301 0.993483
0.000000 0.339203 0.993472
0.000000 0.318325 0.993436
0.552307 0.233842 0.993318
0.879965 0.000000 0.992936
1.000000 0.000000 0.991691
1.000000 0.000000 0.987574
1.000000 0.000000 0.973088
0.000000 0.630880 0.992833
0.000000 0.630207 0.992829
0.000000 0.628578 0.992817
0.000000 0.623211 0.992781
0.380505 0.604723 0.992662
0.866855 0.529274 0.992278
1.000000 0.000000 0.991026
1.000000 0.000000 0.986884
1.000000 0.000000 0.972298
0.000000 0.850237 0.990691
0.000000 0.850098 0.990686
0.000000 0.849763 0.990674
0.000000 0.848673 0.990637
0.000000 0.845068 0.990516
0.807675 0.832508 0.990125
1.000000 0.778683 0.988849
1.000000 0.000000 0.984624
1.000000 0.000000 0.969699
0.000000 0.994345 0.983471
0.000000 0.994313 0.983466
0.000000 0.994236 0.983454
0.000000 0.993987 0.983414
0.000000 0.993180 0.983285
0.000000 0.990529 0.982867
0.981504 0.981504 0.981504
1.000000 0.945366 0.976977
1.000000 0.000000 0.960806
0.000000 1.000000 0.956018
0.000000 1.000000 0.956011
0.000000 1.000000 0.955995
0.000000 1.000000 0.955943
0.000000 1.000000 0.955774
0.000000 1.000000 0.955225
0.000000 1.000000 0.953430
1.000000 1.000000 0.947382
1.000000 1.000000 0.924631
0.000000 1.000000 0.547953
0.000000 1.000000 0.547803
0.000000 1.000000 0.547443
0.000000 1.000000 0.546274
0.000000 1.000000 0.542450
0.000000 1.000000 0.529590
0.000000 1.000000 0.481848
0.000000 1.000000 0.164128
1.000000 1.000000 0.000000
0.000000 0.000000 1.000000
0.000000 0.000000 1.000000
0.000000 0.000000 1.000000
0.000000 0.000000 1.000000
0.000000 0.000000 1.000000
0.818908 0.000000 1.000000
1.000000 0.000000 1.000000
1.000000 0.000000 1.000000
1.000000 0.000000 1.000000
0.000000 0.000000 1.000000
0.000000 0.000000 1.000000
0.000000 0.000000 1.000000
0.000000 0.000000 1.000000
0.000000 0.000000 1.000000
0.818032 0.000000 1.000000
1.000000 0.000000 1.000000
1.000000 0.000000 1.000000
1.000000 0.000000 1.000000
0.000000 0.000000 1.000000
0.000000 0.000000 1.000000
0.000000 0.000000 1.000000
0.000000 0.000000 1.000000
0.000000 0.000000 1.000000
0.815899 0.000000 1.000000
1.000000 0.000000 1.000000
1.000000 0.000000 1.000000
1.000000 0.000000 1.000000
0.000000 0.124337 1.000000
0.000000 0.116912 1.000000
0.000000 0.097505 1.000000
0.000000 0.022636 1.000000
0.000000 0.000000 1.000000
0.808720 0.000000 1.000000
1.000000 0.000000 1.000000
1.000000 0.000000 1.000000
1.000000 0.000000 1.000000
0.000000 0.588084 1.000000
0.000000 0.587240 1.000000
0.000000 0.585197 1.000000
0.000000 0.578442 1.000000
0.000000 0.554910 1.000000
0.782049 0.453831 1.000000
1.000000 0.000000 1.000000
1.000000 0.000000 1.000000
1.000000 0.000000 1.000000
0.000000 0.842015 1.000000
0.000000 0.841864 1.000000
0.000000 0.841502 1.000000
0.000000 0.840323 1.000000
0.000000 0.836421 1.000000
0.623117 0.822764 1.000000
1.000000 0.763120 1.000000
1.000000 0.000000 1.000000
1.000000 0.000000 1.000000
0.000000 0.992512 1.000000
0.000000 0.992480 1.000000
0.000000 0.992402 1.000000
0.000000 0.992149 1.000000
0.000000 0.991329 1.000000
0.000000 0.988634 1.000000
0.961994 0.979446 1.000000
1.000000 0.942384 1.000000
1.000000 0.000000 1.000000
0.000000 1.000000 1.000000
0.000000 1.000000 1.000000
0.000000 1.000000 1.000000
0.000000 1.000000 1.000000
0.000000 1.000000 1.000000
0.000000 1.000000 1.000000
0.000000 1.000000 1.000000
1.000000 1.000000 1.000000
1.000000 1.000000 1.000000
0.000000 1.000000 1.000000
0.000000 1.000000 1.000000
0.000000 1.000000 1.000000
0.000000 1.000000 1.000000
0.000000 1.000000 1.000000
0.000000 1.000000 1.000000
0.000000 1.000000 1.000000
0.000000 1.000000 1.000000
1.000000 1.000000 1.000000
0.000000 0.000000 1.000000
0.000000 0.000000 1.000000
0.000000 0.000000 1.000000
0.000000 0.000000 1.000000
0.000000 0.000000 1.000000
0.000000 0.000000 1.000000
0.969822 0.000000 1.000000
1.000000 0.000000 1.000000
1.000000 0.000000 1.000000
0.000000 0.000000 1.000000
0.000000 0.000000 1.000000
0.000000 0.000000 1.000000
0.000000 0.000000 1.000000
0.000000 0.000000 1.000000
0.000000 0.000000 1.000000
0.969633 0.000000 1.000000
1.000000 0.000000 1.000000
1.000000 0.000000 1.000000
0.000000 0.000000 1.000000
0.000000 0.000000 1.000000
0.000000 0.000000 1.000000
0.000000 0.000000 1.000000
0.000000 0.000000 1.000000
0.000000 0.000000 1.000000
0.969176 0.000000 1.000000
1.000000 0.000000 1.000000
1.000000 0.000000 1.000000
0.000000 0.000000 1.000000
0.000000 0.000000 1.000000
0.000000 0.000000 1.000000
0.000000 0.000000 1.000000
0.000000 0.000000 1.000000
0.000000 0.000000 1.000000
0.967687 0.000000 1.000000
1.000000 0.000000 1.000000
1.000000 0.000000 1.000000
0.000000 0.314753 1.000000
0.000000 0.311881 1.000000
0.000000 0.304830 1.000000
0.000000 0.280430 1.000000
0.000000 0.175477 1.000000
0.000000 0.000000 1.000000
0.962714 0.000000 1.000000
1.000000 0.000000 1.000000
1.000000 0.000000 1.000000
0.000000 0.810207 1.000000
0.000000 0.810008 1.000000
0.000000 0.809527 1.000000
0.000000 0.807958 1.000000
0.000000 0.802739 1.000000
0.000000 0.784146 1.000000
0.944634 0.696138 1.000000
1.000000 0.000000 1.000000
1.000000 0.000000 1.000000
0.000000 0.986379 1.000000
0.000000 0.986345 1.000000
0.000000 0.986262 1.000000
0.000000 0.985995 1.000000
0.000000 0.985128 1.000000
0.000000 0.982277 1.000000
0.836352 0.972501 1.000000
1.000000 0.932036 1.000000
1.000000 0.000000 1.000000
0.000000 1.000000 1.000000
0.000000 1.000000 1.000000
0.000000 1.000000 1.000000
0.000000 1.000000 1.000000
0.000000 1.000000 1.000000
0.000000 1.000000 1.000000
0.000000 1.000000 1.000000
1.000000 1.000000 1.000000
1.000000 1.000000 1.000000
0.000000 1.000000 1.000000
0.000000 1.000000 1.000000
0.000000 1.000000 1.000000
0.000000 1.000000 1.000000
0.000000 1.000000 1.000000
0.000000 1.000000 1.000000
0.000000 1.000000 1.000000
0.000000 1.000000 1.000000
1.000000 1.000000 1.000000
