Knowledge/luts/FLog_to_Rec709.cube
# F-Log to Rec.709
# Log decode: Fujifilm official datasheet constants (exact).
# Gamut: F-Gamut (BT.2020 primaries) -> BT.709, D65.
# Display: extended-Reinhard shoulder (W=8), 18% grey preserved, Rec.709 OETF.
# Generated by make-flog-luts.ps1
TITLE "F-Log to Rec.709"
LUT_3D_SIZE 33
DOMAIN_MIN 0.0 0.0 0.0
DOMAIN_MAX 1.0 1.0 1.0
0.000000 0.000000 0.000000
0.000000 0.000000 0.000000
0.006819 0.000000 0.000000
0.038957 0.000000 0.000000
0.074117 0.000000 0.000000
0.113491 0.000000 0.000000
0.151432 0.000000 0.000000
0.189289 0.000000 0.000000
0.227746 0.000000 0.000000
0.267188 0.000000 0.000000
0.307818 0.000000 0.000000
0.349696 0.000000 0.000000
0.392763 0.000000 0.000000
0.436843 0.000000 0.000000
0.481654 0.000000 0.000000
0.526820 0.000000 0.000000
0.571884 0.000000 0.000000
0.616341 0.000000 0.000000
0.659669 0.000000 0.000000
0.701375 0.000000 0.000000
0.741034 0.000000 0.000000
0.778325 0.000000 0.000000
0.813059 0.000000 0.000000
0.845193 0.000000 0.000000
0.874831 0.000000 0.000000
0.902213 0.000000 0.000000
0.927700 0.000000 0.000000
0.951752 0.000000 0.000000
0.974916 0.000000 0.000000
0.997808 0.000000 0.000000
1.000000 0.000000 0.000000
1.000000 0.000000 0.000000
1.000000 0.000000 0.000000
0.000000 0.000000 0.000000
0.000000 0.000000 0.000000
0.000000 0.000000 0.000000
0.027636 0.000000 0.000000
0.062970 0.000000 0.000000
0.104292 0.000000 0.000000
0.144144 0.000000 0.000000
0.183356 0.000000 0.000000
0.222843 0.000000 0.000000
0.263105 0.000000 0.000000
0.304407 0.000000 0.000000
0.346849 0.000000 0.000000
0.390393 0.000000 0.000000
0.434882 0.000000 0.000000
0.480044 0.000000 0.000000
0.525510 0.000000 0.000000
0.570830 0.000000 0.000000
0.615502 0.000000 0.000000
0.659010 0.000000 0.000000
0.700864 0.000000 0.000000
0.740642 0.000000 0.000000
0.778027 0.000000 0.000000
0.812834 0.000000 0.000000
0.845025 0.000000 0.000000
0.874705 0.000000 0.000000
0.902119 0.000000 0.000000
0.927628 0.000000 0.000000
0.951697 0.000000 0.000000
0.974873 0.000000 0.000000
0.997772 0.000000 0.000000
1.000000 0.000000 0.000000
1.000000 0.000000 0.000000
1.000000 0.000000 0.000000
0.000000 0.000000 0.000000
0.000000 0.000000 0.000000
0.000000 0.000000 0.000000
0.016257 0.000000 0.000000
0.051768 0.000000 0.000000
0.094505 0.000000 0.000000
0.136541 0.000000 0.000000
0.177236 0.000000 0.000000
0.217822 0.000000 0.000000
0.258945 0.000000 0.000000
0.300945 0.000000 0.000000
0.343967 0.000000 0.000000
0.388000 0.000000 0.000000
0.432905 0.000000 0.000000
0.478423 0.000000 0.000000
0.524192 0.000000 0.000000
0.569770 0.000000 0.000000
0.614659 0.000000 0.000000
0.658348 0.000000 0.000000
0.700350 0.000000 0.000000
0.740248 0.000000 0.000000
0.777728 0.000000 0.000000
0.812610 0.000000 0.000000
0.844857 0.000000 0.000000
0.874580 0.000000 0.000000
0.902024 0.000000 0.000000
0.927556 0.000000 0.000000
0.951641 0.000000 0.000000
0.974829 0.000000 0.000000
0.997737 0.000000 0.000000
1.000000 0.000000 0.000000
1.000000 0.000000 0.000000
1.000000 0.000000 0.000000
0.000000 0.008334 0.000000
0.000000 0.005906 0.000000
0.000000 0.003476 0.000000
0.004822 0.001044 0.000000
0.040510 0.000000 0.000000
0.084019 0.000000 0.000000
0.128587 0.000000 0.000000
0.170916 0.000000 0.000000
0.212679 0.000000 0.000000
0.254706 0.000000 0.000000
0.297431 0.000000 0.000000
0.341049 0.000000 0.000000
0.385582 0.000000 0.000000
0.430910 0.000000 0.000000
0.476789 0.000000 0.000000
0.522866 0.000000 0.000000
0.568704 0.000000 0.000000
0.613813 0.000000 0.000000
0.657684 0.000000 0.000000
0.699835 0.000000 0.000000
0.739854 0.000000 0.000000
0.777429 0.000000 0.000000
0.812385 0.000000 0.000000
0.844688 0.000000 0.000000
0.874454 0.000000 0.000000
0.901929 0.000000 0.000000
0.927484 0.000000 0.000000
0.951586 0.000000 0.000000
0.974785 0.000000 0.000000
0.997701 0.000000 0.000000
1.000000 0.000000 0.000000
1.000000 0.000000 0.000000
1.000000 0.000000 0.000000
0.000000 0.032706 0.000000
0.000000 0.030304 0.000000
0.000000 0.027900 0.000000
0.000000 0.025494 0.000000
0.027944 0.022818 0.000000
0.071466 0.019513 0.000000
0.119288 0.015433 0.000000
0.163641 0.010395 0.000000
0.206814 0.004173 0.000000
0.249901 0.000000 0.000000
0.293464 0.000000 0.000000
0.337765 0.000000 0.000000
0.382868 0.000000 0.000000
0.428676 0.000000 0.000000
0.474961 0.000000 0.000000
0.521384 0.000000 0.000000
0.567514 0.000000 0.000000
0.612868 0.000000 0.000000
0.656943 0.000000 0.000000
0.699262 0.000000 0.000000
0.739414 0.000000 0.000000
0.777096 0.000000 0.000000
0.812134 0.000000 0.000000
0.844501 0.000000 0.000000
0.874313 0.000000 0.000000
0.901824 0.000000 0.000000
0.927404 0.000000 0.000000
0.951524 0.000000 0.000000
0.974736 0.000000 0.000000
0.997661 0.000000 0.000000
1.000000 0.000000 0.000000
1.000000 0.000000 0.000000
1.000000 0.000000 0.000000
0.000000 0.062428 0.000000
0.000000 0.060058 0.000000
0.000000 0.057685 0.000000
0.000000 0.055310 0.000000
0.012340 0.052670 0.000000
0.056160 0.049407 0.000000
0.107020 0.045381 0.000000
0.154252 0.040409 0.000000
0.199336 0.034269 0.000000
0.243823 0.026680 0.000000
0.288472 0.017295 0.000000
0.333649 0.005677 0.000000
0.379474 0.000000 0.000000
0.425888 0.000000 0.000000
0.472685 0.000000 0.000000
0.519540 0.000000 0.000000
0.566036 0.000000 0.000000
0.611696 0.000000 0.000000
0.656025 0.000000 0.000000
0.698551 0.000000 0.000000
0.738870 0.000000 0.000000
0.776684 0.000000 0.000000
0.811824 0.000000 0.000000
0.844269 0.000000 0.000000
0.874140 0.000000 0.000000
0.901694 0.000000 0.000000
0.927305 0.000000 0.000000
0.951448 0.000000 0.000000
0.974676 0.000000 0.000000
0.997612 0.000000 0.000000
1.000000 0.000000 0.000000
1.000000 0.000000 0.000000
1.000000 0.000000 0.000000
0.000000 0.097851 0.000000
0.000000 0.095740 0.000000
0.000000 0.093599 0.000000
0.000000 0.091425 0.000000
0.000000 0.088973 0.000000
0.037156 0.085888 0.000000
0.090422 0.081992 0.000000
0.141970 0.076853 0.000000
0.189723 0.070811 0.000000
0.236092 0.063344 0.000000
0.282167 0.054109 0.000000
0.328476 0.042679 0.000000
0.375225 0.028515 0.000000
0.422406 0.010940 0.000000
0.469848 0.000000 0.000000
0.517247 0.000000 0.000000
0.564200 0.000000 0.000000
0.610242 0.000000 0.000000
0.654886 0.000000 0.000000
0.697670 0.000000 0.000000
0.738196 0.000000 0.000000
0.776174 0.000000 0.000000
0.811441 0.000000 0.000000
0.843983 0.000000 0.000000
0.873926 0.000000 0.000000
0.901534 0.000000 0.000000
0.927184 0.000000 0.000000
0.951354 0.000000 0.000000
0.974601 0.000000 0.000000
0.997552 0.000000 0.000000
1.000000 0.000000 0.000000
1.000000 0.000000 0.000000
1.000000 0.000000 0.000000
0.000000 0.133201 0.000000
0.000000 0.131513 0.000000
0.000000 0.129807 0.000000
0.000000 0.128085 0.000000
0.000000 0.126151 0.000000
0.013519 0.123733 0.000000
0.067364 0.120705 0.000000
0.125538 0.116894 0.000000
0.177198 0.112070 0.000000
0.226167 0.105916 0.000000
0.274150 0.097977 0.000000
0.321939 0.087575 0.000000
0.369881 0.073569 0.000000
0.418044 0.056342 0.000000
0.466304 0.034933 0.000000
0.514388 0.008274 0.000000
0.561915 0.000000 0.000000
0.608435 0.000000 0.000000
0.653474 0.000000 0.000000
0.696578 0.000000 0.000000
0.737362 0.000000 0.000000
0.775543 0.000000 0.000000
0.810968 0.000000 0.000000
0.843629 0.000000 0.000000
0.873662 0.000000 0.000000
0.901335 0.000000 0.000000
0.927033 0.000000 0.000000
0.951238 0.000000 0.000000
0.974510 0.000000 0.000000
0.997477 0.000000 0.000000
1.000000 0.000000 0.000000
1.000000 0.000000 0.000000
1.000000 0.000000 0.000000
0.000000 0.168572 0.000000
0.000000 0.167188 0.000000
0.000000 0.165793 0.000000
0.000000 0.164388 0.000000
0.000000 0.162816 0.000000
0.000000 0.160857 0.000000
0.038593 0.158414 0.000000
0.102737 0.155358 0.000000
0.160548 0.151521 0.000000
0.213261 0.146678 0.000000
0.263862 0.140522 0.000000
0.313626 0.132625 0.000000
0.363125 0.122360 0.000000
0.412554 0.108753 0.000000
0.461859 0.090155 0.000000
0.510812 0.064152 0.000000
0.559063 0.031682 0.000000
0.606184 0.000000 0.000000
0.651717 0.000000 0.000000
0.695223 0.000000 0.000000
0.736328 0.000000 0.000000
0.774761 0.000000 0.000000
0.810382 0.000000 0.000000
0.843192 0.000000 0.000000
0.873336 0.000000 0.000000
0.901091 0.000000 0.000000
0.926848 0.000000 0.000000
0.951095 0.000000 0.000000
0.974397 0.000000 0.000000
0.997385 0.000000 0.000000
1.000000 0.000000 0.000000
1.000000 0.000000 0.000000
1.000000 0.000000 0.000000
0.000000 0.204625 0.000000
0.000000 0.203474 0.000000
0.000000 0.202316 0.000000
0.000000 0.201152 0.000000
0.000000 0.199851 0.000000
0.000000 0.198235 0.000000
0.002633 0.196224 0.000000
0.069111 0.193719 0.000000
0.137708 0.190589 0.000000
0.196166 0.186663 0.000000
0.250495 0.181715 0.000000
0.302954 0.175440 0.000000
0.354526 0.167414 0.000000
0.405608 0.157027 0.000000
0.456260 0.143357 0.000000
0.506324 0.124897 0.000000
0.555494 0.098856 0.000000
0.603374 0.060197 0.000000
0.649528 0.010629 0.000000
0.693536 0.000000 0.000000
0.735043 0.000000 0.000000
0.773791 0.000000 0.000000
0.809655 0.000000 0.000000
0.842650 0.000000 0.000000
0.872932 0.000000 0.000000
0.900788 0.000000 0.000000
0.926619 0.000000 0.000000
0.950918 0.000000 0.000000
0.974257 0.000000 0.000000
0.997272 0.000000 0.000000
1.000000 0.000000 0.000000
1.000000 0.000000 0.000000
1.000000 0.000000 0.000000
0.000000 0.241753 0.000000
0.000000 0.240788 0.000000
0.000000 0.239819 0.000000
0.000000 0.238846 0.000000
0.000000 0.237760 0.000000
0.000000 0.236412 0.000000
0.000000 0.234740 0.000000
0.025320 0.232662 0.000000
0.104575 0.230072 0.000000
0.172866 0.226838 0.000000
0.232817 0.222784 0.000000
0.289088 0.217680 0.000000
0.343480 0.211213 0.000000
0.396756 0.202956 0.000000
0.449167 0.192299 0.000000
0.500665 0.178328 0.000000
0.551011 0.159588 0.000000
0.599853 0.133496 0.000000
0.646792 0.094510 0.000000
0.691434 0.034554 0.000000
0.733444 0.000000 0.000000
0.772587 0.000000 0.000000
0.808754 0.000000 0.000000
0.841979 0.000000 0.000000
0.872432 0.000000 0.000000
0.900414 0.000000 0.000000
0.926336 0.000000 0.000000
0.950700 0.000000 0.000000
0.974085 0.000000 0.000000
0.997133 0.000000 0.000000
1.000000 0.000000 0.000000
1.000000 0.000000 0.000000
1.000000 0.000000 0.000000
0.000000 0.280183 0.000000
0.000000 0.279372 0.000000
0.000000 0.278558 0.000000
0.000000 0.277741 0.000000
0.000000 0.276831 0.000000
0.000000 0.275702 0.000000
0.000000 0.274303 0.000000
0.000000 0.272568 0.000000
0.052966 0.270411 0.000000
0.139535 0.267725 0.000000
0.208807 0.264370 0.000000
0.270755 0.260166 0.000000
0.329114 0.254874 0.000000
0.385370 0.248174 0.000000
0.440117 0.239625 0.000000
0.493486 0.228604 0.000000
0.545350 0.214188 0.000000
0.595426 0.194924 0.000000
0.643363 0.168297 0.000000
0.688805 0.129192 0.000000
0.731449 0.063690 0.000000
0.771087 0.000000 0.000000
0.807635 0.000000 0.000000
0.841146 0.000000 0.000000
0.871813 0.000000 0.000000
0.899951 0.000000 0.000000
0.925986 0.000000 0.000000
0.950430 0.000000 0.000000
0.973873 0.000000 0.000000
0.996960 0.000000 0.000000
1.000000 0.000000 0.000000
1.000000 0.000000 0.000000
1.000000 0.000000 0.000000
0.000000 0.320018 0.000000
0.000000 0.319337 0.000000
0.000000 0.318653 0.000000
0.000000 0.317967 0.000000
0.000000 0.317203 0.000000
0.000000 0.316257 0.000000
0.000000 0.315085 0.000000
0.000000 0.313634 0.000000
0.000000 0.311833 0.000000
0.086725 0.309595 0.000000
0.174722 0.306806 0.000000
0.245885 0.303324 0.000000
0.310104 0.298960 0.000000
0.370540 0.293466 0.000000
0.428455 0.286510 0.000000
0.484310 0.277637 0.000000
0.538157 0.266202 0.000000
0.589828 0.251256 0.000000
0.639044 0.231317 0.000000
0.685506 0.203865 0.000000
0.728953 0.163934 0.000000
0.769215 0.098355 0.000000
0.806240 0.000000 0.000000
0.840112 0.000000 0.000000
0.871045 0.000000 0.000000
0.899378 0.000000 0.000000
0.925553 0.000000 0.000000
0.950097 0.000000 0.000000
0.973610 0.000000 0.000000
0.996747 0.000000 0.000000
1.000000 0.000000 0.000000
1.000000 0.000000 0.000000
1.000000 0.000000 0.000000
0.000000 0.361254 0.000000
0.000000 0.360682 0.000000
0.000000 0.360109 0.000000
0.000000 0.359534 0.000000
0.000000 0.358894 0.000000
0.000000 0.358102 0.000000
0.000000 0.357123 0.000000
0.000000 0.355911 0.000000
0.000000 0.354408 0.000000
0.004598 0.352544 0.000000
0.121913 0.350226 0.000000
0.210715 0.347338 0.000000
0.284306 0.343730 0.000000
0.350882 0.339208 0.000000
0.413231 0.333513 0.000000
0.472460 0.326299 0.000000
0.528945 0.317094 0.000000
0.582704 0.305225 0.000000
0.633577 0.289710 0.000000
0.681347 0.269016 0.000000
0.725818 0.240565 0.000000
0.766871 0.199382 0.000000
0.804499 0.132999 0.000000
0.838823 0.003489 0.000000
0.870090 0.000000 0.000000
0.898667 0.000000 0.000000
0.925016 0.000000 0.000000
0.949686 0.000000 0.000000
0.973286 0.000000 0.000000
0.996485 0.000000 0.000000
1.000000 0.000000 0.000000
1.000000 0.000000 0.000000
1.000000 0.000000 0.000000
0.000000 0.403778 0.000000
0.000000 0.403300 0.000000
0.000000 0.402822 0.000000
0.000000 0.402343 0.000000
0.000000 0.401810 0.000000
0.000000 0.401150 0.000000
0.000000 0.400334 0.000000
0.000000 0.399326 0.000000
0.000000 0.398077 0.000000
0.000000 0.396529 0.000000
0.027717 0.394607 0.000000
0.156893 0.392218 0.000000
0.247859 0.389240 0.000000
0.324157 0.385518 0.000000
0.393002 0.380850 0.000000
0.456951 0.374967 0.000000
0.517020 0.367512 0.000000
0.573559 0.357989 0.000000
0.626606 0.345700 0.000000
0.676074 0.329618 0.000000
0.721862 0.308147 0.000000
0.763925 0.278613 0.000000
0.802318 0.235927 0.000000
0.837213 0.167793 0.000000
0.868901 0.025845 0.000000
0.897783 0.000000 0.000000
0.924351 0.000000 0.000000
0.949176 0.000000 0.000000
0.972885 0.000000 0.000000
0.996160 0.000000 0.000000
1.000000 0.000000 0.000000
1.000000 0.000000 0.000000
1.000000 0.000000 0.000000
0.000000 0.447377 0.000000
0.000000 0.446981 0.000000
0.000000 0.446585 0.000000
0.000000 0.446188 0.000000
0.000000 0.445746 0.000000
0.000000 0.445200 0.000000
0.000000 0.444525 0.000000
0.000000 0.443691 0.000000
0.000000 0.442658 0.000000
0.000000 0.441380 0.000000
0.000000 0.439796 0.000000
0.055883 0.437828 0.000000
0.192424 0.435381 0.000000
0.286354 0.432329 0.000000
0.365417 0.428513 0.000000
0.436274 0.423723 0.000000
0.501364 0.417683 0.000000
0.561688 0.410019 0.000000
0.617637 0.400218 0.000000
0.669338 0.387550 0.000000
0.716839 0.370942 0.000000
0.760204 0.348726 0.000000
0.799576 0.318106 0.000000
0.835197 0.273800 0.000000
0.867416 0.203346 0.000000
0.896682 0.053093 0.000000
0.923525 0.000000 0.000000
0.948543 0.000000 0.000000
0.972389 0.000000 0.000000
0.995760 0.000000 0.000000
1.000000 0.000000 0.000000
1.000000 0.000000 0.000000
1.000000 0.000000 0.000000
0.000000 0.491737 0.000000
0.000000 0.491412 0.000000
0.000000 0.491086 0.000000
0.000000 0.490760 0.000000
0.000000 0.490397 0.000000
0.000000 0.489949 0.000000
0.000000 0.489395 0.000000
0.000000 0.488710 0.000000
0.000000 0.487864 0.000000
0.000000 0.486817 0.000000
0.000000 0.485520 0.000000
0.000000 0.483911 0.000000
0.090105 0.481914 0.000000
0.228954 0.479427 0.000000
0.326280 0.476325 0.000000
0.407965 0.472443 0.000000
0.480408 0.467567 0.000000
0.546049 0.461411 0.000000
0.605961 0.453590 0.000000
0.660652 0.443571 0.000000
0.710411 0.430597 0.000000
0.755474 0.413547 0.000000
0.796109 0.390671 0.000000
0.832660 0.359037 0.000000
0.865556 0.313111 0.000000
0.895308 0.240029 0.000000
0.922496 0.086386 0.000000
0.947758 0.000000 0.000000
0.971775 0.000000 0.000000
0.995264 0.000000 0.000000
1.000000 0.000000 0.000000
1.000000 0.000000 0.000000
1.000000 0.000000 0.000000
0.000000 0.536456 0.000000
0.000000 0.536191 0.000000
0.000000 0.535926 0.000000
0.000000 0.535661 0.000000
0.000000 0.535366 0.000000
0.000000 0.535001 0.000000
0.000000 0.534551 0.000000
0.000000 0.533995 0.000000
0.000000 0.533307 0.000000
0.000000 0.532458 0.000000
0.000000 0.531406 0.000000
0.000000 0.530103 0.000000
0.000000 0.528486 0.000000
0.125227 0.526477 0.000000
0.266751 0.523975 0.000000
0.367612 0.520852 0.000000
0.451576 0.516941 0.000000
0.525022 0.512023 0.000000
0.590520 0.505806 0.000000
0.649311 0.497896 0.000000
0.702104 0.487743 0.000000
0.749412 0.474564 0.000000
0.791698 0.457191 0.000000
0.829452 0.433797 0.000000
0.863215 0.401297 0.000000
0.893587 0.353867 0.000000
0.921213 0.278056 0.000000
0.946782 0.121193 0.000000
0.971013 0.000000 0.000000
0.994650 0.000000 0.000000
1.000000 0.000000 0.000000
1.000000 0.000000 0.000000
1.000000 0.000000 0.000000
0.000000 0.581059 0.000000
0.000000 0.580846 0.000000
0.000000 0.580633 0.000000
0.000000 0.580419 0.000000
0.000000 0.580182 0.000000
0.000000 0.579889 0.000000
0.000000 0.579527 0.000000
0.000000 0.579080 0.000000
0.000000 0.578528 0.000000
0.000000 0.577845 0.000000
0.000000 0.577001 0.000000
0.000000 0.575956 0.000000
0.000000 0.574662 0.000000
0.000000 0.573054 0.000000
0.160234 0.571056 0.000000
0.305951 0.568567 0.000000
0.410222 0.565457 0.000000
0.495925 0.561559 0.000000
0.569658 0.556651 0.000000
0.634253 0.550439 0.000000
0.691226 0.542521 0.000000
0.741561 0.532336 0.000000
0.786037 0.519078 0.000000
0.825367 0.501540 0.000000
0.860255 0.477817 0.000000
0.891422 0.444675 0.000000
0.919608 0.395971 0.000000
0.945566 0.317528 0.000000
0.970066 0.155850 0.000000
0.993889 0.000000 0.000000
1.000000 0.000000 0.000000
1.000000 0.000000 0.000000
1.000000 0.000000 0.000000
0.000000 0.625029 0.000000
0.000000 0.624859 0.000000
0.000000 0.624690 0.000000
0.000000 0.624520 0.000000
0.000000 0.624331 0.000000
0.000000 0.624098 0.000000
0.000000 0.623811 0.000000
0.000000 0.623456 0.000000
0.000000 0.623017 0.000000
0.000000 0.622476 0.000000
0.000000 0.621807 0.000000
0.000000 0.620979 0.000000
0.000000 0.619953 0.000000
0.000000 0.618682 0.000000
0.000000 0.617104 0.000000
0.195844 0.615140 0.000000
0.346583 0.612693 0.000000
0.453879 0.609633 0.000000
0.540602 0.605793 0.000000
0.613804 0.600954 0.000000
0.676727 0.594818 0.000000
0.731251 0.586983 0.000000
0.778694 0.576881 0.000000
0.820121 0.563689 0.000000
0.856486 0.546171 0.000000
0.888686 0.522354 0.000000
0.917590 0.488863 0.000000
0.944044 0.439225 0.000000
0.968886 0.358439 0.000000
0.992945 0.191093 0.000000
1.000000 0.000000 0.000000
1.000000 0.000000 0.000000
1.000000 0.000000 0.000000
0.000000 0.667839 0.000000
0.000000 0.667706 0.000000
0.000000 0.667573 0.000000
0.000000 0.667440 0.000000
0.000000 0.667292 0.000000
0.000000 0.667109 0.000000
0.000000 0.666883 0.000000
0.000000 0.666605 0.000000
0.000000 0.666261 0.000000
0.000000 0.665837 0.000000
0.000000 0.665312 0.000000
0.000000 0.664664 0.000000
0.000000 0.663862 0.000000
0.000000 0.662868 0.000000
0.000000 0.661636 0.000000
0.000000 0.660105 0.000000
0.232485 0.658200 0.000000
0.388570 0.655824 0.000000
0.498257 0.652850 0.000000
0.585127 0.649115 0.000000
0.656933 0.644402 0.000000
0.717461 0.638418 0.000000
0.769029 0.630760 0.000000
0.813308 0.620860 0.000000
0.851645 0.607892 0.000000
0.885204 0.590597 0.000000
0.915041 0.566953 0.000000
0.942135 0.533461 0.000000
0.967414 0.483332 0.000000
0.991771 0.400681 0.000000
1.000000 0.227359 0.000000
1.000000 0.000000 0.000000
1.000000 0.000000 0.000000
0.000000 0.709000 0.000000
0.000000 0.708897 0.000000
0.000000 0.708794 0.000000
0.000000 0.708690 0.000000
0.000000 0.708575 0.000000
0.000000 0.708434 0.000000
0.000000 0.708259 0.000000
0.000000 0.708043 0.000000
0.000000 0.707777 0.000000
0.000000 0.707449 0.000000
0.000000 0.707043 0.000000
0.000000 0.706541 0.000000
0.000000 0.705921 0.000000
0.000000 0.705154 0.000000
0.000000 0.704203 0.000000
0.000000 0.703023 0.000000
0.000000 0.701557 0.000000
0.270410 0.699732 0.000000
0.431734 0.697453 0.000000
0.542938 0.694600 0.000000
0.628978 0.691013 0.000000
0.698541 0.686480 0.000000
0.756060 0.680716 0.000000
0.804326 0.673326 0.000000
0.845354 0.663747 0.000000
0.880733 0.651157 0.000000
0.911802 0.634293 0.000000
0.939728 0.611105 0.000000
0.965569 0.577997 0.000000
0.990307 0.527903 0.000000
1.000000 0.444045 0.000000
1.000000 0.264910 0.000000
1.000000 0.000000 0.000000
0.000000 0.748095 0.000000
0.000000 0.748016 0.000000
0.000000 0.747937 0.000000
0.000000 0.747858 0.000000
0.000000 0.747770 0.000000
0.000000 0.747661 0.000000
0.000000 0.747527 0.000000
0.000000 0.747362 0.000000
0.000000 0.747158 0.000000
0.000000 0.746907 0.000000
0.000000 0.746596 0.000000
0.000000 0.746213 0.000000
0.000000 0.745739 0.000000
0.000000 0.745153 0.000000
0.000000 0.744427 0.000000
0.000000 0.743528 0.000000
0.000000 0.742412 0.000000
0.000000 0.741025 0.000000
0.309747 0.739297 0.000000
0.475795 0.737138 0.000000
0.587441 0.734434 0.000000
0.671632 0.731030 0.000000
0.738187 0.726725 0.000000
0.792245 0.721241 0.000000
0.837054 0.714196 0.000000
0.874927 0.705044 0.000000
0.907649 0.692975 0.000000
0.936674 0.676738 0.000000
0.963249 0.654281 0.000000
0.988477 0.621956 0.000000
1.000000 0.572475 0.000000
1.000000 0.488224 0.000000
1.000000 0.303884 0.000000
0.000000 0.784818 0.000000
0.000000 0.784758 0.000000
0.000000 0.784699 0.000000
0.000000 0.784638 0.000000
0.000000 0.784572 0.000000
0.000000 0.784490 0.000000
0.000000 0.784388 0.000000
0.000000 0.784263 0.000000
0.000000 0.784108 0.000000
0.000000 0.783918 0.000000
0.000000 0.783683 0.000000
0.000000 0.783392 0.000000
0.000000 0.783034 0.000000
0.000000 0.782591 0.000000
0.000000 0.782042 0.000000
0.000000 0.781363 0.000000
0.000000 0.780522 0.000000
0.000000 0.779477 0.000000
0.000000 0.778178 0.000000
0.350512 0.776560 0.000000
0.520380 0.774537 0.000000
0.631242 0.772001 0.000000
0.712602 0.768807 0.000000
0.775534 0.764762 0.000000
0.825874 0.759604 0.000000
0.867269 0.752966 0.000000
0.902263 0.744323 0.000000
0.932768 0.732892 0.000000
0.960312 0.717451 0.000000
0.986181 0.695974 0.000000
1.000000 0.664809 0.000000
1.000000 0.616534 0.000000
1.000000 0.532819 0.000000
0.000000 0.819000 0.000000
0.000000 0.818955 0.000000
0.000000 0.818910 0.000000
0.000000 0.818865 0.000000
0.000000 0.818815 0.000000
0.000000 0.818753 0.000000
0.000000 0.818676 0.000000
0.000000 0.818582 0.000000
0.000000 0.818466 0.000000
0.000000 0.818323 0.000000
0.000000 0.818146 0.000000
0.000000 0.817928 0.000000
0.000000 0.817659 0.000000
0.000000 0.817326 0.000000
0.000000 0.816915 0.000000
0.000000 0.816406 0.000000
0.000000 0.815776 0.000000
0.000000 0.814995 0.000000
0.000000 0.814025 0.000000
0.000000 0.812819 0.000000
0.392621 0.811316 0.000000
0.565036 0.809437 0.000000
0.673820 0.807079 0.000000
0.751479 0.804109 0.000000
0.810374 0.800344 0.000000
0.856954 0.795538 0.000000
0.895172 0.789345 0.000000
0.927716 0.781266 0.000000
0.956568 0.770555 0.000000
0.983285 0.756035 0.000000
1.000000 0.735736 0.000000
1.000000 0.706059 0.000000
1.000000 0.659553 0.000000
0.000000 0.850616 0.000000
0.000000 0.850583 0.000000
0.000000 0.850549 0.000000
0.000000 0.850515 0.000000
0.000000 0.850477 0.000000
0.000000 0.850431 0.000000
0.000000 0.850374 0.000000
0.000000 0.850303 0.000000
0.000000 0.850216 0.000000
0.000000 0.850109 0.000000
0.000000 0.849977 0.000000
0.000000 0.849814 0.000000
0.000000 0.849613 0.000000
0.000000 0.849364 0.000000
0.000000 0.849057 0.000000
0.000000 0.848677 0.000000
0.000000 0.848207 0.000000
0.000000 0.847625 0.000000
0.000000 0.846904 0.000000
0.000000 0.846008 0.000000
0.000000 0.844894 0.000000
0.435884 0.843506 0.000000
0.609258 0.841769 0.000000
0.714689 0.839590 0.000000
0.787968 0.836844 0.000000
0.842643 0.833362 0.000000
0.885636 0.828914 0.000000
0.921086 0.823178 0.000000
0.951745 0.815686 0.000000
0.979606 0.805734 0.000000
1.000000 0.792209 0.000000
1.000000 0.773223 0.000000
1.000000 0.745283 0.000000
0.000000 0.879789 0.000000
0.000000 0.879764 0.000000
0.000000 0.879739 0.000000
0.000000 0.879713 0.000000
0.000000 0.879685 0.000000
0.000000 0.879651 0.000000
0.000000 0.879608 0.000000
0.000000 0.879555 0.000000
0.000000 0.879490 0.000000
0.000000 0.879410 0.000000
0.000000 0.879311 0.000000
0.000000 0.879189 0.000000
0.000000 0.879038 0.000000
0.000000 0.878852 0.000000
0.000000 0.878623 0.000000
0.000000 0.878339 0.000000
0.000000 0.877988 0.000000
0.000000 0.877555 0.000000
